; generated by PrusaSlicer 2.3.3 on 2021-09-12 at 03:37:55 UTC

; 

; external perimeters extrusion width = 0.45mm
; perimeters extrusion width = 0.45mm
; infill extrusion width = 0.45mm
; solid infill extrusion width = 0.45mm
; top infill extrusion width = 0.40mm
; first layer extrusion width = 0.42mm

M73 P0 R70
M73 Q0 S70
M201 X1000 Y1000 Z200 E5000 ; sets maximum accelerations, mm/sec^2
M203 X200 Y200 Z12 E120 ; sets maximum feedrates, mm/sec
M204 P1250 R1250 T1250 ; sets acceleration (P, T) and retract acceleration (R), mm/sec^2
M205 X8.00 Y8.00 Z0.40 E4.50 ; sets the jerk limits, mm/sec
M205 S0 T0 ; sets the minimum extruding and travel feed rate, mm/sec
M107
;TYPE:Custom
M862.3 P "MK3S" ; printer model check
M862.1 P0.4 ; nozzle diameter check
M115 U3.10.0 ; tell printer latest fw version
G90 ; use absolute coordinates
M83 ; extruder relative mode
M104 S215 ; set extruder temp
M140 S60 ; set bed temp
M190 S60 ; wait for bed temp
M109 S215 ; wait for extruder temp
G28 W ; home all without mesh bed level
G80 ; mesh bed leveling
G1 Y-3.0 F1000.0 ; go outside print area
G92 E0.0
G1 X60.0 E9.0 F1000.0 ; intro line
G1 X100.0 E12.5 F1000.0 ; intro line
G92 E0.0
M221 S95

; Don't change E values below. Excessive value can damage the printer.
M907 E430 ; set extruder motor current
G21 ; set units to millimeters
G90 ; use absolute coordinates
M83 ; use relative distances for extrusion
M900 K0.05 ; Filament gcode LA 1.5
M900 K30 ; Filament gcode LA 1.0
;LAYER_CHANGE
;Z:0.2
;HEIGHT:0.2
;BEFORE_LAYER_CHANGE
G92 E0.0
;0.2


M73 P0 R69
G1 E-0.80000 F2100.000
G1 Z0.400 F10800.000
;AFTER_LAYER_CHANGE
;0.2
G1 X89.348 Y87.214
G1 Z0.200
G1 E0.80000 F2100.000
M204 S1000
;TYPE:Skirt
;WIDTH:0.42
G1 F1200.000
G1 X89.984 Y87.123 E0.02012
G1 X144.504 Y87.123 E1.70944
G1 X145.904 Y87.178 E0.04395
G1 X147.298 Y87.343 E0.04401
G1 X148.675 Y87.617 E0.04401
G1 X150.030 Y88.000 E0.04413
G1 X151.343 Y88.484 E0.04389
G1 X152.621 Y89.074 E0.04413
G1 X153.846 Y89.760 E0.04401
G1 X155.076 Y90.589 E0.04652
G1 X156.115 Y91.410 E0.04150
G1 X157.150 Y92.368 E0.04425
G1 X158.100 Y93.397 E0.04389
G1 X159.016 Y94.569 E0.04664
G1 X159.750 Y95.671 E0.04150
G1 X160.469 Y96.968 E0.04652
G1 X161.472 Y99.387 E0.08211
G1 X161.860 Y100.736 E0.04401
G1 X162.155 Y102.194 E0.04663
G1 X162.322 Y103.592 E0.04413
G1 X162.377 Y104.998 E0.04413
G1 X162.322 Y106.397 E0.04389
G1 X162.157 Y107.795 E0.04413
G1 X161.884 Y109.171 E0.04401
G1 X161.503 Y110.522 E0.04401
G1 X161.018 Y111.836 E0.04389
G1 X160.429 Y113.114 E0.04413
G1 X159.744 Y114.339 E0.04401
G1 X158.964 Y115.506 E0.04401
G1 X158.095 Y116.609 E0.04401
G1 X157.140 Y117.642 E0.04413
G1 X156.109 Y118.595 E0.04401
G1 X155.006 Y119.464 E0.04401
G1 X153.839 Y120.244 E0.04401
G1 X152.621 Y120.926 E0.04377
G1 X151.420 Y121.482 E0.04150
G1 X149.939 Y122.028 E0.04950
G1 X148.668 Y122.384 E0.04139
G1 X147.295 Y122.657 E0.04389
G1 X145.905 Y122.822 E0.04389
G1 X144.555 Y122.876 E0.04234
G1 X89.950 Y122.877 E1.71209
G1 X89.364 Y122.790 E0.01858
G1 X88.817 Y122.562 E0.01858
G1 X88.344 Y122.205 E0.01858
G1 X87.974 Y121.743 E0.01858
G1 X87.716 Y121.159 E0.02000
G1 X87.623 Y120.524 E0.02012
G1 X87.624 Y89.447 E0.97441
G1 X87.711 Y88.860 E0.01858
G1 X87.940 Y88.314 E0.01858
G1 X88.297 Y87.841 E0.01858
G1 X88.757 Y87.474 E0.01846
G1 X89.293 Y87.238 E0.01836
; printing object BNO Stand.stl id:0 copy 0
;WIPE_START
G1 F8640.000
G1 X89.984 Y87.123 E-0.16157
G1 X92.575 Y87.123 E-0.59843
;WIPE_END
G1 E-0.04000 F2100.000
G1 Z0.600 F10800.000
G1 X137.436 Y90.836
G1 Z0.200
G1 E0.80000 F2100.000
;TYPE:Perimeter
G1 F1200.000
G1 X144.525 Y90.836 E0.22227
G1 X145.701 Y90.886 E0.03692
G1 X146.894 Y91.039 E0.03770
G1 X148.069 Y91.292 E0.03770
G1 X149.219 Y91.644 E0.03770
G1 X150.335 Y92.092 E0.03770
G1 X151.408 Y92.634 E0.03770
G1 X152.432 Y93.264 E0.03770
G1 X153.399 Y93.979 E0.03770
G1 X154.301 Y94.773 E0.03770
G1 X155.133 Y95.641 E0.03770
G1 X155.889 Y96.577 E0.03770
G1 X156.562 Y97.573 E0.03770
G1 X157.148 Y98.623 E0.03770
G1 X157.644 Y99.718 E0.03770
G1 X158.044 Y100.852 E0.03770
G1 X158.347 Y102.016 E0.03770
G1 X158.550 Y103.201 E0.03770
G1 X158.652 Y104.399 E0.03770
G1 X158.652 Y105.601 E0.03770
G1 X158.550 Y106.799 E0.03770
G1 X158.347 Y107.984 E0.03770
G1 X158.044 Y109.148 E0.03770
G1 X157.644 Y110.282 E0.03770
G1 X157.148 Y111.377 E0.03770
G1 X156.562 Y112.427 E0.03770
G1 X155.889 Y113.423 E0.03770
G1 X155.133 Y114.359 E0.03770
G1 X154.301 Y115.227 E0.03770
G1 X153.399 Y116.021 E0.03770
G1 X152.432 Y116.736 E0.03770
G1 X151.408 Y117.366 E0.03770
G1 X150.335 Y117.908 E0.03770
G1 X149.219 Y118.356 E0.03770
G1 X148.069 Y118.708 E0.03770
G1 X146.894 Y118.961 E0.03770
G1 X145.701 Y119.114 E0.03770
G1 X144.525 Y119.164 E0.03692
G1 X137.436 Y119.164 E0.22227
G1 X137.436 Y90.896 E0.88633
G1 X137.813 Y91.213 F10800.000
G1 F1200.000
G1 X144.517 Y91.213 E0.21019
G1 X145.669 Y91.262 E0.03617
G1 X146.830 Y91.411 E0.03670
G1 X147.974 Y91.657 E0.03670
G1 X149.093 Y92.000 E0.03670
G1 X150.179 Y92.436 E0.03670
G1 X151.224 Y92.963 E0.03669
G1 X152.221 Y93.577 E0.03670
G1 X153.162 Y94.273 E0.03669
G1 X154.040 Y95.046 E0.03670
G1 X154.850 Y95.891 E0.03670
G1 X155.585 Y96.801 E0.03670
G1 X156.241 Y97.771 E0.03670
G1 X156.811 Y98.793 E0.03669
G1 X157.294 Y99.859 E0.03670
G1 X157.683 Y100.963 E0.03670
G1 X157.978 Y102.095 E0.03670
G1 X158.176 Y103.249 E0.03670
G1 X158.275 Y104.415 E0.03670
G1 X158.275 Y105.585 E0.03670
G1 X158.176 Y106.751 E0.03670
G1 X157.978 Y107.905 E0.03670
G1 X157.683 Y109.037 E0.03670
G1 X157.294 Y110.141 E0.03670
G1 X156.811 Y111.207 E0.03670
G1 X156.241 Y112.229 E0.03669
G1 X155.585 Y113.199 E0.03670
G1 X154.850 Y114.109 E0.03670
G1 X154.040 Y114.954 E0.03670
G1 X153.162 Y115.727 E0.03670
G1 X152.221 Y116.423 E0.03669
G1 X151.224 Y117.037 E0.03670
G1 X150.179 Y117.564 E0.03669
G1 X149.093 Y118.000 E0.03670
G1 X147.974 Y118.343 E0.03670
G1 X146.830 Y118.589 E0.03670
G1 X145.669 Y118.738 E0.03670
G1 X144.517 Y118.787 E0.03617
G1 X137.813 Y118.787 E0.21019
G1 X137.813 Y91.273 E0.86269
G1 X138.190 Y91.590 F10800.000
;TYPE:External perimeter
G1 F1200.000
G1 X144.509 Y91.590 E0.19812
G1 X145.637 Y91.638 E0.03542
G1 X146.766 Y91.783 E0.03569
G1 X147.879 Y92.022 E0.03569
G1 X148.968 Y92.356 E0.03569
G1 X150.024 Y92.780 E0.03569
G1 X151.040 Y93.293 E0.03569
G1 X152.009 Y93.889 E0.03569
G1 X152.925 Y94.566 E0.03569
G1 X153.779 Y95.318 E0.03569
G1 X154.567 Y96.140 E0.03569
G1 X155.282 Y97.026 E0.03569
M73 Q0 S69
G1 X155.919 Y97.969 E0.03569
G1 X156.474 Y98.963 E0.03569
G1 X156.943 Y100.000 E0.03569
G1 X157.323 Y101.073 E0.03569
G1 X157.609 Y102.175 E0.03569
G1 X157.802 Y103.297 E0.03569
G1 X157.898 Y104.431 E0.03569
G1 X157.898 Y105.569 E0.03569
G1 X157.802 Y106.703 E0.03569
G1 X157.609 Y107.825 E0.03569
G1 X157.323 Y108.927 E0.03569
G1 X156.943 Y110.000 E0.03569
G1 X156.474 Y111.037 E0.03569
G1 X155.919 Y112.031 E0.03569
G1 X155.282 Y112.974 E0.03569
G1 X154.567 Y113.860 E0.03569
G1 X153.779 Y114.682 E0.03569
G1 X152.925 Y115.434 E0.03569
G1 X152.009 Y116.111 E0.03569
G1 X151.040 Y116.707 E0.03569
G1 X150.024 Y117.220 E0.03569
G1 X148.968 Y117.644 E0.03569
G1 X147.879 Y117.978 E0.03569
G1 X146.766 Y118.217 E0.03569
G1 X145.637 Y118.362 E0.03569
G1 X144.509 Y118.410 E0.03542
G1 X138.190 Y118.410 E0.19812
G1 X138.190 Y91.650 E0.83904
G1 X138.159 Y91.191 F10800.000
;WIPE_START
G1 F8640.000
G1 X141.481 Y91.619 E-0.76000
;WIPE_END
G1 E-0.04000 F2100.000
G1 Z0.600 F10800.000
G1 X91.164 Y119.336
G1 Z0.200
G1 E0.80000 F2100.000
;TYPE:Perimeter
G1 F1200.000
G1 X91.164 Y90.664 E0.89898
G1 X144.492 Y90.665 E1.67206
G1 X145.625 Y90.709 E0.03554
G1 X146.742 Y90.842 E0.03529
G1 X147.846 Y91.061 E0.03529
G1 X148.930 Y91.367 E0.03529
G1 X149.986 Y91.756 E0.03529
G1 X151.008 Y92.227 E0.03529
G1 X151.990 Y92.777 E0.03529
G1 X152.926 Y93.403 E0.03529
G1 X153.810 Y94.100 E0.03529
G1 X154.636 Y94.864 E0.03529
G1 X155.400 Y95.690 E0.03529
G1 X156.097 Y96.574 E0.03529
G1 X156.723 Y97.510 E0.03529
G1 X157.273 Y98.492 E0.03529
G1 X157.744 Y99.514 E0.03529
G1 X158.133 Y100.570 E0.03529
G1 X158.439 Y101.654 E0.03529
G1 X158.658 Y102.758 E0.03529
G1 X158.791 Y103.875 E0.03529
G1 X158.835 Y105.000 E0.03529
G1 X158.791 Y106.125 E0.03529
G1 X158.658 Y107.242 E0.03529
G1 X158.439 Y108.346 E0.03529
G1 X158.133 Y109.430 E0.03529
G1 X157.744 Y110.486 E0.03529
G1 X157.273 Y111.508 E0.03529
G1 X156.723 Y112.490 E0.03529
G1 X156.097 Y113.426 E0.03529
G1 X155.400 Y114.310 E0.03529
G1 X154.636 Y115.136 E0.03529
G1 X153.810 Y115.900 E0.03529
G1 X152.926 Y116.597 E0.03529
G1 X151.990 Y117.223 E0.03529
G1 X151.008 Y117.773 E0.03529
G1 X149.986 Y118.244 E0.03529
G1 X148.930 Y118.633 E0.03529
G1 X147.846 Y118.939 E0.03529
G1 X146.742 Y119.158 E0.03529
G1 X145.625 Y119.291 E0.03529
G1 X144.477 Y119.336 E0.03601
G1 X91.224 Y119.336 E1.66971
G1 X90.787 Y119.713 F10800.000
G1 F1200.000
G1 X90.787 Y90.287 E0.92263
M73 P1 R69
M73 Q1 S69
G1 X144.500 Y90.288 E1.68412
G1 X145.654 Y90.333 E0.03623
G1 X146.802 Y90.469 E0.03622
G1 X147.935 Y90.694 E0.03622
G1 X149.046 Y91.008 E0.03622
G1 X150.130 Y91.408 E0.03622
G1 X151.179 Y91.891 E0.03622
G1 X152.187 Y92.456 E0.03622
G1 X153.148 Y93.097 E0.03622
G1 X154.055 Y93.813 E0.03622
G1 X154.903 Y94.597 E0.03622
G1 X155.687 Y95.445 E0.03622
G1 X156.403 Y96.352 E0.03622
G1 X157.044 Y97.313 E0.03622
G1 X157.609 Y98.321 E0.03622
G1 X158.092 Y99.370 E0.03622
G1 X158.492 Y100.454 E0.03622
G1 X158.806 Y101.565 E0.03622
G1 X159.031 Y102.698 E0.03622
G1 X159.167 Y103.846 E0.03622
G1 X159.212 Y105.000 E0.03622
G1 X159.167 Y106.154 E0.03622
G1 X159.031 Y107.302 E0.03622
G1 X158.806 Y108.435 E0.03622
G1 X158.492 Y109.546 E0.03622
G1 X158.092 Y110.630 E0.03622
G1 X157.609 Y111.679 E0.03622
G1 X157.044 Y112.687 E0.03622
G1 X156.403 Y113.648 E0.03622
G1 X155.687 Y114.555 E0.03622
G1 X154.903 Y115.403 E0.03622
G1 X154.055 Y116.187 E0.03622
G1 X153.148 Y116.903 E0.03622
G1 X152.187 Y117.544 E0.03622
G1 X151.179 Y118.109 E0.03622
G1 X150.130 Y118.592 E0.03622
G1 X149.046 Y118.992 E0.03622
G1 X147.935 Y119.306 E0.03622
G1 X146.802 Y119.531 E0.03622
G1 X145.654 Y119.667 E0.03622
G1 X144.485 Y119.713 E0.03671
G1 X90.847 Y119.713 E1.68177
G1 X90.410 Y120.090 F10800.000
;TYPE:External perimeter
G1 F1200.000
G1 X90.410 Y89.910 E0.94627
G1 X144.507 Y89.911 E1.69617
G1 X145.684 Y89.957 E0.03693
G1 X146.861 Y90.096 E0.03715
G1 X148.023 Y90.327 E0.03715
G1 X149.163 Y90.649 E0.03715
G1 X150.275 Y91.059 E0.03715
G1 X151.351 Y91.555 E0.03715
G1 X152.384 Y92.134 E0.03715
G1 X153.369 Y92.792 E0.03715
G1 X154.300 Y93.526 E0.03715
G1 X155.170 Y94.330 E0.03715
G1 X155.974 Y95.200 E0.03715
G1 X156.708 Y96.131 E0.03715
G1 X157.366 Y97.116 E0.03715
G1 X157.945 Y98.149 E0.03715
G1 X158.441 Y99.225 E0.03715
G1 X158.851 Y100.337 E0.03715
G1 X159.173 Y101.477 E0.03715
G1 X159.404 Y102.639 E0.03715
G1 X159.543 Y103.816 E0.03715
G1 X159.590 Y105.000 E0.03715
G1 X159.543 Y106.184 E0.03715
G1 X159.404 Y107.361 E0.03715
G1 X159.173 Y108.523 E0.03715
G1 X158.851 Y109.663 E0.03715
G1 X158.441 Y110.775 E0.03715
G1 X157.945 Y111.851 E0.03715
G1 X157.366 Y112.884 E0.03715
G1 X156.708 Y113.869 E0.03715
G1 X155.974 Y114.800 E0.03715
G1 X155.170 Y115.670 E0.03715
G1 X154.300 Y116.474 E0.03715
G1 X153.369 Y117.208 E0.03715
G1 X152.384 Y117.866 E0.03715
G1 X151.351 Y118.445 E0.03715
G1 X150.275 Y118.941 E0.03715
G1 X149.163 Y119.351 E0.03715
G1 X148.023 Y119.673 E0.03715
G1 X146.861 Y119.904 E0.03715
G1 X145.684 Y120.043 E0.03715
G1 X144.492 Y120.090 E0.03740
G1 X90.470 Y120.090 E1.69382
G1 X90.610 Y119.744 F10800.000
;WIPE_START
G1 F8640.000
G1 X90.463 Y116.799 E-0.76000
;WIPE_END
G1 E-0.04000 F2100.000
G1 Z0.600 F10800.000
G1 X137.323 Y91.545
G1 Z0.200
G1 E0.80000 F2100.000
;TYPE:Solid infill
;WIDTH:0.422243
G1 F1200.000
G1 X136.725 Y90.947 E0.02665
G1 X136.189 Y90.947 E0.01692
G1 X137.153 Y91.912 E0.04300
G1 X137.153 Y92.448 E0.01692
G1 X135.652 Y90.947 E0.06693
G1 X135.116 Y90.947 E0.01692
G1 X137.153 Y92.984 E0.09086
G1 X137.153 Y93.521 E0.01692
G1 X134.580 Y90.947 E0.11479
G1 X134.043 Y90.947 E0.01692
G1 X137.153 Y94.057 E0.13872
G1 X137.153 Y94.594 E0.01692
G1 X133.507 Y90.947 E0.16265
G1 X132.970 Y90.947 E0.01692
G1 X137.153 Y95.130 E0.18658
G1 X137.153 Y95.667 E0.01692
G1 X132.434 Y90.947 E0.21050
G1 X131.897 Y90.947 E0.01692
G1 X137.153 Y96.203 E0.23443
G1 X137.153 Y96.740 E0.01692
G1 X131.361 Y90.947 E0.25836
G1 X130.824 Y90.947 E0.01692
G1 X137.153 Y97.276 E0.28229
G1 X137.153 Y97.812 E0.01692
G1 X130.288 Y90.947 E0.30622
G1 X129.752 Y90.947 E0.01692
G1 X137.153 Y98.349 E0.33015
G1 X137.153 Y98.885 E0.01692
G1 X129.215 Y90.947 E0.35408
G1 X128.679 Y90.947 E0.01692
G1 X137.153 Y99.422 E0.37801
M73 P1 R68
G1 X137.153 Y99.958 E0.01692
G1 X128.142 Y90.947 E0.40193
G1 X127.606 Y90.947 E0.01692
G1 X137.153 Y100.495 E0.42586
G1 X137.153 Y101.031 E0.01692
G1 X127.069 Y90.947 E0.44979
G1 X126.533 Y90.947 E0.01692
G1 X137.153 Y101.568 E0.47372
G1 X137.153 Y102.104 E0.01692
G1 X125.996 Y90.947 E0.49765
G1 X125.460 Y90.947 E0.01692
G1 X137.153 Y102.640 E0.52158
G1 X137.153 Y103.177 E0.01692
G1 X124.923 Y90.947 E0.54551
G1 X124.387 Y90.947 E0.01692
G1 X137.153 Y103.713 E0.56943
G1 X137.153 Y104.250 E0.01692
G1 X123.851 Y90.947 E0.59336
G1 X123.314 Y90.947 E0.01692
G1 X137.153 Y104.786 E0.61729
G1 X137.153 Y105.323 E0.01692
G1 X122.778 Y90.947 E0.64122
G1 X122.241 Y90.947 E0.01692
G1 X137.153 Y105.859 E0.66515
G1 X137.153 Y106.396 E0.01692
G1 X121.705 Y90.947 E0.68908
G1 X121.168 Y90.947 E0.01692
G1 X137.153 Y106.932 E0.71301
G1 X137.153 Y107.468 E0.01692
G1 X120.632 Y90.947 E0.73693
G1 X120.095 Y90.947 E0.01692
G1 X137.153 Y108.005 E0.76086
G1 X137.153 Y108.541 E0.01692
G1 X119.559 Y90.947 E0.78479
G1 X119.023 Y90.947 E0.01692
G1 X137.153 Y109.078 E0.80872
M73 Q2 S69
G1 X137.153 Y109.614 E0.01692
G1 X118.486 Y90.947 E0.83265
M73 P2 R68
G1 X117.950 Y90.947 E0.01692
G1 X137.153 Y110.151 E0.85658
G1 X137.153 Y110.687 E0.01692
G1 X117.413 Y90.947 E0.88051
M73 Q2 S68
G1 X116.877 Y90.947 E0.01692
G1 X137.153 Y111.224 E0.90443
G1 X137.153 Y111.760 E0.01692
G1 X116.340 Y90.947 E0.92836
G1 X115.804 Y90.947 E0.01692
G1 X137.153 Y112.296 E0.95229
G1 X137.153 Y112.833 E0.01692
G1 X115.267 Y90.947 E0.97622
G1 X114.731 Y90.947 E0.01692
G1 X137.153 Y113.369 E1.00015
G1 X137.153 Y113.906 E0.01692
G1 X114.194 Y90.947 E1.02408
G1 X113.658 Y90.947 E0.01692
G1 X137.153 Y114.442 E1.04801
G1 X137.153 Y114.979 E0.01692
G1 X113.122 Y90.947 E1.07193
G1 X112.585 Y90.947 E0.01692
G1 X137.153 Y115.515 E1.09586
G1 X137.153 Y116.052 E0.01692
G1 X112.049 Y90.947 E1.11979
G1 X111.512 Y90.947 E0.01692
G1 X137.153 Y116.588 E1.14372
G1 X137.153 Y117.124 E0.01692
G1 X110.976 Y90.947 E1.16765
G1 X110.439 Y90.947 E0.01692
G1 X137.153 Y117.661 E1.19158
G1 X137.153 Y118.197 E0.01692
G1 X109.903 Y90.947 E1.21551
G1 X109.366 Y90.947 E0.01692
G1 X137.153 Y118.734 E1.23943
G1 X137.153 Y119.053 E0.01007
G1 X136.936 Y119.053 E0.00685
G1 X108.830 Y90.947 E1.25368
G1 X108.294 Y90.947 E0.01692
G1 X136.399 Y119.053 E1.25368
G1 X135.863 Y119.053 E0.01692
G1 X107.757 Y90.947 E1.25368
G1 X107.221 Y90.947 E0.01692
G1 X135.327 Y119.053 E1.25368
G1 X134.790 Y119.053 E0.01692
G1 X106.684 Y90.947 E1.25368
G1 X106.148 Y90.947 E0.01692
G1 X134.254 Y119.053 E1.25368
M73 P3 R67
M73 Q3 S68
G1 X133.717 Y119.053 E0.01692
G1 X105.611 Y90.947 E1.25368
G1 X105.075 Y90.947 E0.01692
G1 X133.181 Y119.053 E1.25368
G1 X132.644 Y119.053 E0.01692
G1 X104.538 Y90.947 E1.25368
G1 X104.002 Y90.947 E0.01692
G1 X132.108 Y119.053 E1.25368
G1 X131.571 Y119.053 E0.01692
G1 X103.466 Y90.947 E1.25368
G1 X102.929 Y90.947 E0.01692
G1 X131.035 Y119.053 E1.25368
G1 X130.499 Y119.053 E0.01692
G1 X102.393 Y90.947 E1.25368
G1 X101.856 Y90.947 E0.01692
G1 X129.962 Y119.053 E1.25368
G1 X129.426 Y119.053 E0.01692
G1 X101.320 Y90.947 E1.25368
G1 X100.783 Y90.947 E0.01692
G1 X128.889 Y119.053 E1.25368
G1 X128.353 Y119.053 E0.01692
G1 X100.247 Y90.947 E1.25368
M73 Q3 S67
G1 X99.710 Y90.947 E0.01692
G1 X127.816 Y119.053 E1.25368
G1 X127.280 Y119.053 E0.01692
G1 X99.174 Y90.947 E1.25368
G1 X98.637 Y90.947 E0.01692
G1 X126.743 Y119.053 E1.25368
G1 X126.207 Y119.053 E0.01692
