; generated by PrusaSlicer 2.3.3 on 2021-09-27 at 01:44:53 UTC

; 

; external perimeters extrusion width = 0.45mm
; perimeters extrusion width = 0.45mm
; infill extrusion width = 0.45mm
; solid infill extrusion width = 0.45mm
; top infill extrusion width = 0.40mm
; support material extrusion width = 0.35mm
; first layer extrusion width = 0.42mm

M73 P0 R234
M73 Q0 S236
M201 X1000 Y1000 Z200 E5000 ; sets maximum accelerations, mm/sec^2
M203 X200 Y200 Z12 E120 ; sets maximum feedrates, mm/sec
M204 P1250 R1250 T1250 ; sets acceleration (P, T) and retract acceleration (R), mm/sec^2
M205 X8.00 Y8.00 Z0.40 E4.50 ; sets the jerk limits, mm/sec
M205 S0 T0 ; sets the minimum extruding and travel feed rate, mm/sec
M107
;TYPE:Custom
M862.3 P "MK3S" ; printer model check
M862.1 P0.4 ; nozzle diameter check
M115 U3.10.0 ; tell printer latest fw version
G90 ; use absolute coordinates
M83 ; extruder relative mode
M104 S215 ; set extruder temp
M140 S60 ; set bed temp
M190 S60 ; wait for bed temp
M109 S215 ; wait for extruder temp
G28 W ; home all without mesh bed level
G80 ; mesh bed leveling
G1 Y-3.0 F1000.0 ; go outside print area
G92 E0.0
G1 X60.0 E9.0 F1000.0 ; intro line
G1 X100.0 E12.5 F1000.0 ; intro line
G92 E0.0
M221 S95

; Don't change E values below. Excessive value can damage the printer.
M907 E430 ; set extruder motor current
G21 ; set units to millimeters
G90 ; use absolute coordinates
M83 ; use relative distances for extrusion
M900 K0.05 ; Filament gcode LA 1.5
M900 K30 ; Filament gcode LA 1.0
;LAYER_CHANGE
;Z:0.2
;HEIGHT:0.2
;BEFORE_LAYER_CHANGE
G92 E0.0
;0.2


G1 E-0.80000 F2100.000
G1 Z0.400 F10800.000
;AFTER_LAYER_CHANGE
;0.2
G1 X89.580 Y60.443
G1 Z0.200
G1 E0.80000 F2100.000
M204 S1000
;TYPE:Skirt
;WIDTH:0.42
G1 F1200.000
G1 X89.941 Y59.767 E0.02402
G1 X90.312 Y59.381 E0.01680
G1 X90.764 Y59.085 E0.01692
G1 X91.267 Y58.901 E0.01680
G1 X91.798 Y58.833 E0.01680
G1 X158.174 Y58.833 E2.08115
G1 X159.072 Y59.011 E0.02872
G1 X159.834 Y59.513 E0.02860
G1 X160.351 Y60.265 E0.02860
G1 X160.547 Y61.159 E0.02872
G1 X160.547 Y145.801 E2.65389
G1 X160.420 Y146.557 E0.02402
G1 X160.059 Y147.233 E0.02402
G1 X159.685 Y147.622 E0.01692
G1 X159.233 Y147.916 E0.01692
G1 X158.722 Y148.102 E0.01704
G1 X158.186 Y148.167 E0.01692
G1 X91.811 Y148.167 E2.08115
G1 X91.060 Y148.039 E0.02390
G1 X90.387 Y147.679 E0.02390
G1 X89.996 Y147.302 E0.01704
G1 X89.702 Y146.849 E0.01692
G1 X89.518 Y146.342 E0.01692
G1 X89.453 Y145.803 E0.01704
G1 X89.453 Y61.199 E2.65270
M73 P0 R233
G1 X89.570 Y60.502 E0.02214
; printing object Case Top.stl id:0 copy 0
;WIPE_START
G1 F8640.000
G1 X89.941 Y59.767 E-0.19007
G1 X90.312 Y59.381 E-0.12375
G1 X90.764 Y59.085 E-0.12462
G1 X91.267 Y58.901 E-0.12375
G1 X91.798 Y58.833 E-0.12375
G1 X92.119 Y58.833 E-0.07406
;WIPE_END
G1 E-0.04000 F2100.000
G1 Z0.600 F10800.000
G1 X129.876 Y85.846
G1 Z0.200
G1 E0.80000 F2100.000
;TYPE:Perimeter
G1 F1200.000
G1 X130.513 Y85.323 E0.02585
G1 X131.234 Y84.938 E0.02563
G1 X132.017 Y84.700 E0.02563
G1 X132.773 Y84.626 E0.02383
G1 X141.887 Y84.626 E0.28578
G1 X142.643 Y84.700 E0.02383
G1 X143.426 Y84.938 E0.02563
G1 X144.147 Y85.323 E0.02563
G1 X144.778 Y85.842 E0.02563
G1 X145.262 Y86.430 E0.02387
G1 X145.680 Y87.188 E0.02714
G1 X145.920 Y87.977 E0.02585
G1 X145.994 Y88.733 E0.02383
G1 X145.994 Y105.347 E0.52093
G1 X145.920 Y106.103 E0.02383
G1 X145.682 Y106.886 E0.02563
G1 X145.297 Y107.607 E0.02563
G1 X144.778 Y108.238 E0.02563
G1 X144.147 Y108.757 E0.02563
G1 X143.426 Y109.142 E0.02563
G1 X142.643 Y109.380 E0.02563
G1 X141.887 Y109.454 E0.02383
G1 X132.773 Y109.454 E0.28578
G1 X132.017 Y109.380 E0.02383
G1 X131.234 Y109.142 E0.02563
G1 X130.513 Y108.757 E0.02563
G1 X129.882 Y108.238 E0.02563
G1 X129.363 Y107.607 E0.02563
G1 X128.978 Y106.886 E0.02563
G1 X128.740 Y106.103 E0.02563
G1 X128.666 Y105.347 E0.02383
G1 X128.666 Y88.733 E0.52093
G1 X128.740 Y87.977 E0.02383
G1 X128.978 Y87.194 E0.02563
G1 X129.337 Y86.523 E0.02387
G1 X129.839 Y85.893 E0.02526
G1 X130.134 Y86.128 F10800.000
G1 F1200.000
G1 X130.724 Y85.638 E0.02405
G1 X131.379 Y85.288 E0.02330
G1 X132.090 Y85.072 E0.02330
G1 X132.791 Y85.003 E0.02208
G1 X141.869 Y85.003 E0.28461
G1 X142.570 Y85.072 E0.02208
G1 X143.281 Y85.288 E0.02330
G1 X143.936 Y85.638 E0.02330
G1 X144.511 Y86.109 E0.02330
G1 X144.948 Y86.643 E0.02163
G1 X145.331 Y87.335 E0.02481
G1 X145.548 Y88.050 E0.02343
G1 X145.617 Y88.751 E0.02208
G1 X145.617 Y105.329 E0.51977
G1 X145.548 Y106.030 E0.02208
G1 X145.332 Y106.741 E0.02330
G1 X144.982 Y107.396 E0.02330
G1 X144.511 Y107.971 E0.02330
G1 X143.936 Y108.442 E0.02330
G1 X143.281 Y108.792 E0.02330
G1 X142.570 Y109.008 E0.02330
G1 X141.869 Y109.077 E0.02208
G1 X132.791 Y109.077 E0.28461
G1 X132.090 Y109.008 E0.02208
G1 X131.379 Y108.792 E0.02330
G1 X130.724 Y108.442 E0.02330
G1 X130.149 Y107.971 E0.02330
G1 X129.678 Y107.396 E0.02330
G1 X129.328 Y106.741 E0.02330
G1 X129.112 Y106.030 E0.02330
G1 X129.043 Y105.329 E0.02208
G1 X129.043 Y88.751 E0.51977
G1 X129.112 Y88.050 E0.02208
G1 X129.328 Y87.339 E0.02330
G1 X129.653 Y86.731 E0.02163
G1 X130.096 Y86.175 E0.02230
G1 X130.391 Y86.410 F10800.000
;TYPE:External perimeter
G1 F1200.000
G1 X130.934 Y85.953 E0.02226
G1 X131.524 Y85.638 E0.02097
G1 X132.164 Y85.444 E0.02097
G1 X132.810 Y85.380 E0.02034
G1 X141.850 Y85.380 E0.28345
G1 X142.496 Y85.444 E0.02034
G1 X143.136 Y85.638 E0.02097
G1 X143.726 Y85.953 E0.02097
G1 X144.243 Y86.377 E0.02097
G1 X144.635 Y86.855 E0.01939
G1 X144.982 Y87.483 E0.02248
G1 X145.176 Y88.124 E0.02102
G1 X145.240 Y88.770 E0.02034
G1 X145.240 Y105.310 E0.51861
G1 X145.176 Y105.956 E0.02034
G1 X144.982 Y106.596 E0.02097
G1 X144.667 Y107.186 E0.02097
G1 X144.243 Y107.703 E0.02097
G1 X143.726 Y108.127 E0.02097
G1 X143.136 Y108.442 E0.02097
G1 X142.496 Y108.636 E0.02097
G1 X141.850 Y108.700 E0.02034
G1 X132.810 Y108.700 E0.28345
G1 X132.164 Y108.636 E0.02034
G1 X131.524 Y108.442 E0.02097
G1 X130.934 Y108.127 E0.02097
G1 X130.417 Y107.703 E0.02097
G1 X129.993 Y107.186 E0.02097
G1 X129.678 Y106.596 E0.02097
G1 X129.484 Y105.956 E0.02097
G1 X129.420 Y105.310 E0.02034
G1 X129.420 Y88.770 E0.51861
G1 X129.484 Y88.124 E0.02034
G1 X129.678 Y87.484 E0.02097
G1 X129.969 Y86.939 E0.01939
G1 X130.354 Y86.457 E0.01934
G1 X130.284 Y86.024 F10800.000
;WIPE_START
G1 F8640.000
G1 X130.934 Y85.953 E-0.17751
G1 X131.524 Y85.638 E-0.15444
G1 X132.164 Y85.444 E-0.15444
G1 X132.810 Y85.380 E-0.14977
G1 X133.346 Y85.380 E-0.12383
;WIPE_END
G1 E-0.04000 F2100.000
G1 Z0.600 F10800.000
G1 X147.996 Y86.210
G1 Z0.200
G1 E0.80000 F2100.000
;TYPE:Perimeter
G1 F1200.000
G1 X148.070 Y85.647 E0.01780
G1 X148.287 Y85.123 E0.01780
G1 X148.633 Y84.673 E0.01780
G1 X149.083 Y84.327 E0.01780
G1 X149.607 Y84.110 E0.01780
G1 X150.117 Y84.043 E0.01612
G1 X150.720 Y84.104 E0.01900
G1 X151.257 Y84.327 E0.01824
G1 X151.707 Y84.673 E0.01780
G1 X152.053 Y85.123 E0.01780
G1 X152.270 Y85.647 E0.01780
G1 X152.344 Y86.210 E0.01780
G1 X152.270 Y86.773 E0.01780
G1 X152.053 Y87.297 E0.01780
G1 X151.707 Y87.747 E0.01780
G1 X151.257 Y88.093 E0.01780
G1 X150.733 Y88.310 E0.01780
G1 X150.170 Y88.384 E0.01780
G1 X149.607 Y88.310 E0.01780
G1 X149.083 Y88.093 E0.01780
G1 X148.633 Y87.747 E0.01780
G1 X148.287 Y87.297 E0.01780
G1 X148.070 Y86.773 E0.01780
G1 X148.004 Y86.269 E0.01591
G1 X148.377 Y86.220 F10800.000
G1 F1200.000
G1 X148.437 Y85.746 E0.01500
G1 X148.616 Y85.313 E0.01468
G1 X148.902 Y84.942 E0.01468
G1 X149.273 Y84.656 E0.01468
G1 X149.706 Y84.477 E0.01468
G1 X150.122 Y84.422 E0.01318
G1 X150.626 Y84.474 E0.01588
G1 X151.067 Y84.656 E0.01495
G1 X151.438 Y84.942 E0.01468
G1 X151.724 Y85.313 E0.01468
G1 X151.903 Y85.746 E0.01468
G1 X151.964 Y86.210 E0.01468
G1 X151.903 Y86.674 E0.01468
G1 X151.724 Y87.107 E0.01468
G1 X151.438 Y87.478 E0.01468
G1 X151.067 Y87.764 E0.01468
G1 X150.634 Y87.943 E0.01468
G1 X150.170 Y88.004 E0.01468
G1 X149.706 Y87.943 E0.01468
G1 X149.273 Y87.764 E0.01468
G1 X148.902 Y87.478 E0.01468
G1 X148.616 Y87.107 E0.01468
G1 X148.437 Y86.674 E0.01468
G1 X148.385 Y86.280 E0.01248
G1 X148.756 Y86.210 F10800.000
;TYPE:External perimeter
G1 F1200.000
G1 X148.805 Y85.844 E0.01157
M73 Q0 S235
G1 X148.946 Y85.503 E0.01157
G1 X149.170 Y85.210 E0.01157
G1 X149.463 Y84.986 E0.01157
G1 X149.804 Y84.845 E0.01157
G1 X150.128 Y84.802 E0.01024
G1 X150.533 Y84.843 E0.01277
G1 X150.877 Y84.986 E0.01167
G1 X151.170 Y85.210 E0.01157
G1 X151.394 Y85.503 E0.01157
G1 X151.535 Y85.844 E0.01157
G1 X151.584 Y86.210 E0.01157
G1 X151.535 Y86.576 E0.01157
G1 X151.394 Y86.917 E0.01157
G1 X151.170 Y87.210 E0.01157
G1 X150.877 Y87.434 E0.01157
G1 X150.536 Y87.575 E0.01157
G1 X150.170 Y87.624 E0.01157
G1 X149.804 Y87.575 E0.01157
G1 X149.463 Y87.434 E0.01157
G1 X149.170 Y87.210 E0.01157
G1 X148.946 Y86.917 E0.01157
G1 X148.805 Y86.576 E0.01157
G1 X148.764 Y86.269 E0.00969
G1 X148.437 Y86.025 F10800.000
;WIPE_START
G1 F8640.000
G1 X148.805 Y85.844 E-0.09865
G1 X148.946 Y85.503 E-0.08521
G1 X149.170 Y85.210 E-0.08520
G1 X149.463 Y84.986 E-0.08520
G1 X149.804 Y84.845 E-0.08520
G1 X150.128 Y84.802 E-0.07540
G1 X150.533 Y84.843 E-0.09403
G1 X150.877 Y84.986 E-0.08592
G1 X151.101 Y85.158 E-0.06518
;WIPE_END
G1 E-0.04000 F2100.000
G1 Z0.600 F10800.000
G1 X144.867 Y76.336
G1 Z0.200
G1 E0.80000 F2100.000
;TYPE:Perimeter
G1 F1200.000
G1 X144.045 Y76.444 E0.02598
G1 X143.223 Y76.336 E0.02598
G1 X142.458 Y76.019 E0.02598
G1 X141.800 Y75.515 E0.02598
G1 X141.296 Y74.857 E0.02598
G1 X140.979 Y74.092 E0.02598
G1 X140.871 Y73.270 E0.02598
G1 X140.979 Y72.448 E0.02598
G1 X141.296 Y71.683 E0.02598
G1 X141.800 Y71.026 E0.02598
G1 X142.458 Y70.521 E0.02598
G1 X143.223 Y70.204 E0.02598
G1 X143.982 Y70.104 E0.02400
G1 X144.857 Y70.200 E0.02757
G1 X145.632 Y70.521 E0.02632
G1 X146.290 Y71.026 E0.02598
G1 X146.794 Y71.683 E0.02598
G1 X147.087 Y72.390 E0.02400
G1 X147.221 Y73.259 E0.02757
G1 X147.111 Y74.092 E0.02632
G1 X146.794 Y74.857 E0.02598
G1 X146.290 Y75.515 E0.02598
G1 X145.632 Y76.019 E0.02598
G1 X144.922 Y76.313 E0.02410
G1 X144.778 Y75.965 F10800.000
G1 F1200.000
G1 X144.045 Y76.064 E0.02318
G1 X143.322 Y75.969 E0.02287
G1 X142.648 Y75.690 E0.02287
G1 X142.069 Y75.246 E0.02287
G1 X141.625 Y74.667 E0.02287
G1 X141.346 Y73.993 E0.02287
G1 X141.251 Y73.270 E0.02287
G1 X141.346 Y72.547 E0.02287
G1 X141.625 Y71.873 E0.02287
G1 X142.069 Y71.294 E0.02287
G1 X142.648 Y70.850 E0.02287
G1 X143.322 Y70.571 E0.02287
G1 X143.987 Y70.484 E0.02102
G1 X144.762 Y70.569 E0.02446
G1 X145.442 Y70.850 E0.02307
G1 X146.021 Y71.294 E0.02287
G1 X146.465 Y71.873 E0.02287
G1 X146.721 Y72.492 E0.02102
G1 X146.840 Y73.264 E0.02446
G1 X146.744 Y73.993 E0.02307
G1 X146.465 Y74.667 E0.02287
G1 X146.021 Y75.246 E0.02287
G1 X145.442 Y75.690 E0.02287
G1 X144.833 Y75.942 E0.02066
G1 X144.689 Y75.593 F10800.000
;TYPE:External perimeter
G1 F1200.000
G1 X144.045 Y75.684 E0.02038
G1 X143.420 Y75.601 E0.01976
G1 X142.838 Y75.360 E0.01976
G1 X142.338 Y74.977 E0.01976
G1 X141.955 Y74.477 E0.01976
G1 X141.714 Y73.895 E0.01976
G1 X141.631 Y73.270 E0.01976
G1 X141.714 Y72.645 E0.01976
G1 X141.955 Y72.063 E0.01975
G1 X142.338 Y71.563 E0.01975
G1 X142.838 Y71.180 E0.01976
G1 X143.420 Y70.939 E0.01976
G1 X143.991 Y70.864 E0.01804
G1 X144.668 Y70.938 E0.02135
G1 X145.252 Y71.180 E0.01983
G1 X145.752 Y71.563 E0.01976
G1 X146.135 Y72.063 E0.01975
G1 X146.355 Y72.595 E0.01804
G1 X146.459 Y73.268 E0.02135
G1 X146.376 Y73.895 E0.01983
G1 X146.135 Y74.477 E0.01976
G1 X145.752 Y74.977 E0.01976
G1 X145.252 Y75.360 E0.01976
G1 X144.744 Y75.570 E0.01722
G1 X144.588 Y75.980 F10800.000
;WIPE_START
G1 F8640.000
G1 X144.045 Y75.684 E-0.16356
G1 X143.420 Y75.601 E-0.14548
G1 X142.838 Y75.360 E-0.14548
G1 X142.338 Y74.977 E-0.14548
G1 X141.955 Y74.477 E-0.14548
G1 X141.931 Y74.419 E-0.01451
;WIPE_END
G1 E-0.04000 F2100.000
G1 Z0.600 F10800.000
G1 X101.815 Y85.369
G1 Z0.200
G1 E0.80000 F2100.000
;TYPE:Perimeter
G1 F1200.000
G1 X102.243 Y85.041 E0.01691
G1 X103.008 Y84.724 E0.02598
G1 X103.754 Y84.626 E0.02357
G1 X119.906 Y84.626 E0.50645
G1 X120.652 Y84.724 E0.02357
G1 X121.417 Y85.041 E0.02598
G1 X122.074 Y85.545 E0.02598
G1 X122.579 Y86.203 E0.02598
G1 X122.896 Y86.968 E0.02598
G1 X122.994 Y87.714 E0.02357
G1 X122.994 Y128.866 E1.29031
G1 X122.896 Y129.612 E0.02357
G1 X122.579 Y130.377 E0.02598
G1 X122.075 Y131.035 E0.02598
G1 X121.417 Y131.539 E0.02598
G1 X120.652 Y131.856 E0.02598
G1 X119.906 Y131.954 E0.02357
G1 X103.754 Y131.954 E0.50645
G1 X103.008 Y131.856 E0.02357
G1 X102.243 Y131.539 E0.02598
G1 X101.585 Y131.035 E0.02598
G1 X101.081 Y130.377 E0.02598
G1 X100.764 Y129.612 E0.02598
G1 X100.666 Y128.866 E0.02357
G1 X100.666 Y88.197 E1.27516
G1 X100.393 Y88.310 E0.00927
G1 X99.830 Y88.384 E0.01780
G1 X99.267 Y88.310 E0.01780
G1 X98.743 Y88.093 E0.01780
G1 X98.293 Y87.747 E0.01780
G1 X97.947 Y87.297 E0.01780
G1 X97.730 Y86.773 E0.01780
G1 X97.656 Y86.210 E0.01780
G1 X97.730 Y85.647 E0.01780
G1 X97.947 Y85.123 E0.01780
G1 X98.293 Y84.673 E0.01780
G1 X98.743 Y84.327 E0.01780
G1 X99.267 Y84.110 E0.01780
G1 X99.777 Y84.043 E0.01612
G1 X100.380 Y84.104 E0.01900
G1 X100.917 Y84.327 E0.01824
G1 X101.367 Y84.673 E0.01780
G1 X101.713 Y85.123 E0.01780
G1 X101.792 Y85.314 E0.00648
G1 X101.613 Y86.129 F10800.000
G1 F1200.000
G1 X101.854 Y85.814 E0.01242
G1 X102.433 Y85.370 E0.02287
G1 X103.107 Y85.091 E0.02287
G1 X103.778 Y85.003 E0.02124
G1 X119.882 Y85.003 E0.50490
G1 X120.553 Y85.091 E0.02124
G1 X121.227 Y85.370 E0.02287
G1 X121.806 Y85.814 E0.02287
G1 X122.250 Y86.393 E0.02287
G1 X122.529 Y87.067 E0.02287
G1 X122.617 Y87.738 E0.02124
G1 X122.617 Y128.842 E1.28876
G1 X122.529 Y129.513 E0.02124
G1 X122.250 Y130.187 E0.02287
G1 X121.806 Y130.766 E0.02287
G1 X121.227 Y131.210 E0.02287
G1 X120.553 Y131.489 E0.02287
G1 X119.882 Y131.577 E0.02124
G1 X103.778 Y131.577 E0.50490
G1 X103.107 Y131.489 E0.02124
G1 X102.433 Y131.210 E0.02287
G1 X101.854 Y130.766 E0.02287
G1 X101.410 Y130.187 E0.02287
G1 X101.131 Y129.513 E0.02287
G1 X101.043 Y128.842 E0.02124
G1 X101.043 Y87.738 E1.28876
G1 X101.075 Y87.497 E0.00765
G1 X100.727 Y87.764 E0.01375
G1 X100.294 Y87.943 E0.01468
G1 X99.830 Y88.004 E0.01468
G1 X99.366 Y87.943 E0.01468
G1 X98.933 Y87.764 E0.01468
G1 X98.562 Y87.478 E0.01468
G1 X98.276 Y87.107 E0.01468
G1 X98.097 Y86.674 E0.01468
G1 X98.036 Y86.210 E0.01468
G1 X98.097 Y85.746 E0.01468
G1 X98.276 Y85.313 E0.01468
G1 X98.562 Y84.942 E0.01468
G1 X98.933 Y84.656 E0.01468
G1 X99.366 Y84.477 E0.01468
G1 X99.782 Y84.422 E0.01318
G1 X100.286 Y84.474 E0.01588
G1 X100.727 Y84.656 E0.01495
G1 X101.098 Y84.942 E0.01468
G1 X101.384 Y85.313 E0.01468
G1 X101.544 Y85.701 E0.01318
G1 X101.604 Y86.069 E0.01169
G1 X102.123 Y86.083 F10800.000
;TYPE:External perimeter
G1 F1200.000
G1 X102.623 Y85.700 E0.01976
G1 X103.205 Y85.459 E0.01975
G1 X103.803 Y85.380 E0.01891
G1 X119.857 Y85.380 E0.50335
G1 X120.455 Y85.459 E0.01891
G1 X121.037 Y85.700 E0.01976
G1 X121.537 Y86.083 E0.01975
G1 X121.920 Y86.583 E0.01976
G1 X122.161 Y87.165 E0.01976
G1 X122.240 Y87.763 E0.01891
G1 X122.240 Y128.817 E1.28721
G1 X122.161 Y129.415 E0.01891
G1 X121.920 Y129.997 E0.01976
G1 X121.537 Y130.497 E0.01976
G1 X121.037 Y130.880 E0.01976
G1 X120.455 Y131.121 E0.01976
G1 X119.857 Y131.200 E0.01891
G1 X103.803 Y131.200 E0.50335
G1 X103.205 Y131.121 E0.01891
G1 X102.623 Y130.880 E0.01976
G1 X102.123 Y130.497 E0.01976
G1 X101.740 Y129.997 E0.01976
G1 X101.499 Y129.415 E0.01975
G1 X101.420 Y128.817 E0.01891
G1 X101.420 Y87.763 E1.28721
G1 X101.499 Y87.165 E0.01891
G1 X101.740 Y86.583 E0.01976
G1 X102.087 Y86.131 E0.01787
G1 X102.020 Y85.697 F10800.000
G1 X101.244 Y86.207
G1 F1200.000
G1 X101.195 Y86.576 E0.01167
G1 X101.054 Y86.917 E0.01157
G1 X100.830 Y87.210 E0.01157
G1 X100.537 Y87.434 E0.01157
G1 X100.196 Y87.575 E0.01157
G1 X99.830 Y87.624 E0.01157
G1 X99.464 Y87.575 E0.01157
G1 X99.123 Y87.434 E0.01157
G1 X98.830 Y87.210 E0.01157
G1 X98.606 Y86.917 E0.01157
G1 X98.465 Y86.576 E0.01157
G1 X98.416 Y86.210 E0.01157
G1 X98.465 Y85.844 E0.01157
G1 X98.606 Y85.503 E0.01157
G1 X98.830 Y85.210 E0.01157
G1 X99.123 Y84.986 E0.01157
G1 X99.464 Y84.845 E0.01157
G1 X99.788 Y84.802 E0.01024
G1 X100.193 Y84.843 E0.01277
