; generated by PrusaSlicer 2.3.3 on 2021-09-12 at 03:37:24 UTC

; 

; external perimeters extrusion width = 0.45mm
; perimeters extrusion width = 0.45mm
; infill extrusion width = 0.45mm
; solid infill extrusion width = 0.45mm
; top infill extrusion width = 0.40mm
; first layer extrusion width = 0.42mm

M73 P0 R70
M73 Q0 S72
M201 X1000 Y1000 Z200 E5000 ; sets maximum accelerations, mm/sec^2
M203 X200 Y200 Z12 E120 ; sets maximum feedrates, mm/sec
M204 P1250 R1250 T1250 ; sets acceleration (P, T) and retract acceleration (R), mm/sec^2
M205 X8.00 Y8.00 Z0.40 E4.50 ; sets the jerk limits, mm/sec
M205 S0 T0 ; sets the minimum extruding and travel feed rate, mm/sec
M107
;TYPE:Custom
M862.3 P "MK3S" ; printer model check
M862.1 P0.4 ; nozzle diameter check
M115 U3.10.0 ; tell printer latest fw version
G90 ; use absolute coordinates
M83 ; extruder relative mode
M104 S215 ; set extruder temp
M140 S60 ; set bed temp
M190 S60 ; wait for bed temp
M109 S215 ; wait for extruder temp
G28 W ; home all without mesh bed level
G80 ; mesh bed leveling
G1 Y-3.0 F1000.0 ; go outside print area
G92 E0.0
G1 X60.0 E9.0 F1000.0 ; intro line
G1 X100.0 E12.5 F1000.0 ; intro line
G92 E0.0
M221 S95

; Don't change E values below. Excessive value can damage the printer.
M907 E430 ; set extruder motor current
G21 ; set units to millimeters
G90 ; use absolute coordinates
M83 ; use relative distances for extrusion
M900 K0.05 ; Filament gcode LA 1.5
M900 K30 ; Filament gcode LA 1.0
;LAYER_CHANGE
;Z:0.2
;HEIGHT:0.2
;BEFORE_LAYER_CHANGE
G92 E0.0
;0.2


M73 Q0 S71
G1 E-0.80000 F2100.000
G1 Z0.400 F10800.000
;AFTER_LAYER_CHANGE
;0.2
G1 X204.182 Y81.558
G1 Z0.200
G1 E0.80000 F2100.000
M204 S1000
;TYPE:Skirt
;WIDTH:0.42
G1 F1200.000
G1 X204.377 Y82.453 E0.02872
G1 X204.374 Y113.622 E0.97727
G1 X204.226 Y114.335 E0.02284
G1 X203.868 Y114.970 E0.02284
G1 X203.339 Y115.464 E0.02272
G1 X202.681 Y115.777 E0.02284
G1 X60.173 Y129.871 E4.49005
G1 X46.992 Y129.877 E0.41325
G1 X46.393 Y129.817 E0.01888
G1 X45.438 Y129.493 E0.03164
G1 X44.702 Y128.974 E0.02822
G1 X44.110 Y128.246 E0.02941
G1 X43.756 Y127.439 E0.02764
G1 X43.623 Y126.522 E0.02906
G1 X43.623 Y113.492 E0.40852
G1 X43.798 Y111.917 E0.04970
G1 X44.181 Y110.685 E0.04046
G1 X44.755 Y109.585 E0.03891
G1 X45.775 Y108.292 E0.05161
G1 X47.073 Y107.262 E0.05197
G1 X48.176 Y106.685 E0.03903
G1 X49.342 Y106.319 E0.03831
G1 X195.597 Y80.157 E4.65851
G1 X202.004 Y80.123 E0.20089
G1 X202.902 Y80.301 E0.02872
G1 X203.664 Y80.803 E0.02860
G1 X204.149 Y81.509 E0.02684
; printing object Clamp.stl id:0 copy 0
;WIPE_START
G1 F8640.000
G1 X204.377 Y82.453 E-0.22440
G1 X204.376 Y84.773 E-0.53560
;WIPE_END
G1 E-0.04000 F2100.000
G1 Z0.600 F10800.000
G1 X194.164 Y105.336
G1 Z0.200
G1 E0.80000 F2100.000
;TYPE:Perimeter
G1 F1200.000
G1 X194.164 Y110.564 E0.16393
G1 X173.836 Y110.564 E0.63738
G1 X173.836 Y105.336 E0.16393
G1 X194.104 Y105.336 E0.63550
G1 X193.787 Y105.713 F10800.000
G1 F1200.000
G1 X193.787 Y110.187 E0.14028
G1 X174.213 Y110.187 E0.61373
G1 X174.213 Y105.713 E0.14028
G1 X193.727 Y105.713 E0.61185
G1 X193.410 Y106.090 F10800.000
;TYPE:External perimeter
G1 F1200.000
G1 X193.410 Y109.810 E0.11664
G1 X174.590 Y109.810 E0.59009
G1 X174.590 Y106.090 E0.11664
G1 X193.350 Y106.090 E0.58821
G1 X193.809 Y106.064 F10800.000
;WIPE_START
G1 F8640.000
G1 X193.403 Y109.381 E-0.76000
;WIPE_END
G1 E-0.04000 F2100.000
G1 Z0.600 F10800.000
G1 X59.836 Y112.336
G1 Z0.200
G1 E0.80000 F2100.000
;TYPE:Perimeter
G1 F1200.000
G1 X59.836 Y126.336 E0.43896
G1 X47.164 Y126.336 E0.39731
G1 X47.164 Y113.557 E0.40067
G1 X47.243 Y112.753 E0.02534
G1 X47.461 Y112.034 E0.02354
G1 X47.815 Y111.372 E0.02354
G1 X48.292 Y110.792 E0.02354
G1 X48.872 Y110.315 E0.02354
G1 X49.534 Y109.961 E0.02354
G1 X50.253 Y109.743 E0.02354
G1 X51.057 Y109.664 E0.02534
G1 X167.367 Y109.664 E3.64681
M73 P1 R70
M73 Q1 S71
G1 X173.867 Y105.113 E0.24880
G1 X193.067 Y105.113 E0.60201
M73 P1 R69
G1 X194.066 Y104.983 E0.03158
G1 X195.104 Y104.553 E0.03521
G1 X195.976 Y103.869 E0.03477
G1 X196.605 Y103.049 E0.03240
G1 X197.022 Y102.057 E0.03374
G1 X197.162 Y101.048 E0.03193
G1 X197.164 Y83.664 E0.54505
G1 X200.836 Y83.664 E0.11513
G1 X200.836 Y112.336 E0.89898
G1 X59.896 Y112.336 E4.41907
G1 X60.213 Y112.713 F10800.000
G1 F1200.000
G1 X60.213 Y126.448 E0.43067
G1 X60.199 Y126.553 E0.00332
G1 X60.146 Y126.646 E0.00335
G1 X60.053 Y126.699 E0.00335
G1 X59.948 Y126.713 E0.00332
G1 X47.052 Y126.713 E0.40437
G1 X46.947 Y126.699 E0.00332
G1 X46.854 Y126.646 E0.00335
G1 X46.801 Y126.553 E0.00335
G1 X46.787 Y126.448 E0.00332
G1 X46.787 Y113.539 E0.40478
G1 X46.872 Y112.679 E0.02709
G1 X47.111 Y111.889 E0.02587
G1 X47.500 Y111.162 E0.02587
G1 X48.024 Y110.524 E0.02587
G1 X48.662 Y110.000 E0.02587
G1 X49.389 Y109.611 E0.02587
G1 X50.179 Y109.372 E0.02587
G1 X51.039 Y109.287 E0.02709
G1 X167.248 Y109.287 E3.64367
G1 X173.748 Y104.736 E0.24880
G1 X193.043 Y104.736 E0.60497
G1 X193.968 Y104.615 E0.02925
G1 X194.912 Y104.225 E0.03202
G1 X195.706 Y103.601 E0.03166
G1 X196.277 Y102.858 E0.02938
G1 X196.655 Y101.956 E0.03067
G1 X196.785 Y101.022 E0.02958
G1 X196.787 Y83.287 E0.55606
M73 Q1 S70
G1 X201.213 Y83.287 E0.13877
G1 X201.213 Y112.713 E0.92263
G1 X60.273 Y112.713 E4.41907
G1 X60.590 Y113.090 F10800.000
;TYPE:External perimeter
G1 F1200.000
G1 X60.590 Y126.473 E0.41962
G1 X60.566 Y126.652 E0.00565
G1 X60.508 Y126.793 E0.00480
G1 X60.415 Y126.915 E0.00480
G1 X60.293 Y127.008 E0.00480
G1 X60.152 Y127.066 E0.00480
G1 X59.973 Y127.090 E0.00565
G1 X47.027 Y127.090 E0.40592
G1 X46.848 Y127.066 E0.00565
G1 X46.707 Y127.008 E0.00480
G1 X46.585 Y126.915 E0.00480
G1 X46.492 Y126.793 E0.00480
G1 X46.434 Y126.652 E0.00480
G1 X46.410 Y126.473 E0.00565
G1 X46.410 Y113.520 E0.40613
G1 X46.500 Y112.605 E0.02883
G1 X46.761 Y111.744 E0.02820
G1 X47.185 Y110.951 E0.02820
G1 X47.756 Y110.256 E0.02820
G1 X48.451 Y109.685 E0.02820
G1 X49.244 Y109.261 E0.02820
G1 X50.105 Y109.000 E0.02820
G1 X51.020 Y108.910 E0.02883
G1 X167.129 Y108.910 E3.64052
G1 X173.629 Y104.359 E0.24880
G1 X193.019 Y104.359 E0.60794
G1 X193.870 Y104.248 E0.02692
G1 X194.720 Y103.896 E0.02883
G1 X195.436 Y103.334 E0.02854
G1 X195.948 Y102.667 E0.02636
G1 X196.288 Y101.855 E0.02760
G1 X196.408 Y100.996 E0.02722
G1 X196.410 Y82.910 E0.56706
M73 P2 R69
G1 X201.590 Y82.910 E0.16242
M73 Q2 S70
G1 X201.590 Y113.090 E0.94627
G1 X60.650 Y113.090 E4.41907
G1 X60.191 Y113.118 F10800.000
;WIPE_START
G1 F8640.000
G1 X60.635 Y116.381 E-0.76000
;WIPE_END
G1 E-0.04000 F2100.000
G1 Z0.600 F10800.000
G1 X199.959 Y83.777
G1 Z0.200
G1 E0.80000 F2100.000
;TYPE:Solid infill
;WIDTH:0.420492
G1 F1200.000
G1 X200.553 Y84.371 E0.02636
G1 X200.553 Y84.905 E0.01676
G1 X199.595 Y83.947 E0.04253
G1 X199.061 Y83.947 E0.01676
G1 X200.553 Y85.439 E0.06624
G1 X200.553 Y85.973 E0.01676
G1 X198.527 Y83.947 E0.08995
G1 X197.993 Y83.947 E0.01676
G1 X200.553 Y86.507 E0.11365
G1 X200.553 Y87.041 E0.01676
G1 X197.459 Y83.947 E0.13736
G1 X197.447 Y84.468 E0.01638
G1 X200.553 Y87.575 E0.13792
G1 X200.553 Y88.109 E0.01676
G1 X197.447 Y85.002 E0.13792
G1 X197.447 Y85.536 E0.01676
G1 X200.553 Y88.643 E0.13792
G1 X200.553 Y89.177 E0.01676
G1 X197.447 Y86.070 E0.13793
G1 X197.446 Y86.604 E0.01676
G1 X200.553 Y89.711 E0.13793
G1 X200.553 Y90.245 E0.01676
G1 X197.446 Y87.138 E0.13793
G1 X197.446 Y87.672 E0.01676
G1 X200.553 Y90.779 E0.13794
G1 X200.553 Y91.312 E0.01676
G1 X197.446 Y88.206 E0.13794
G1 X197.446 Y88.740 E0.01676
G1 X200.553 Y91.846 E0.13794
G1 X200.553 Y92.380 E0.01676
G1 X197.446 Y89.274 E0.13794
G1 X197.446 Y89.807 E0.01676
G1 X200.553 Y92.914 E0.13795
G1 X200.553 Y93.448 E0.01676
G1 X197.446 Y90.341 E0.13795
G1 X197.446 Y90.875 E0.01676
G1 X200.553 Y93.982 E0.13795
G1 X200.553 Y94.516 E0.01676
G1 X197.446 Y91.409 E0.13796
G1 X197.446 Y91.943 E0.01676
G1 X200.553 Y95.050 E0.13796
G1 X200.553 Y95.584 E0.01676
G1 X197.446 Y92.477 E0.13796
G1 X197.446 Y93.011 E0.01676
G1 X200.553 Y96.118 E0.13796
G1 X200.553 Y96.652 E0.01676
G1 X197.446 Y93.545 E0.13797
G1 X197.446 Y94.079 E0.01676
G1 X200.553 Y97.186 E0.13797
G1 X200.553 Y97.720 E0.01676
G1 X197.446 Y94.613 E0.13797
G1 X197.445 Y95.146 E0.01676
G1 X200.553 Y98.254 E0.13798
G1 X200.553 Y98.788 E0.01676
G1 X197.445 Y95.680 E0.13798
G1 X197.445 Y96.214 E0.01676
G1 X200.553 Y99.322 E0.13798
G1 X200.553 Y99.856 E0.01676
G1 X197.445 Y96.748 E0.13798
G1 X197.445 Y97.282 E0.01676
G1 X200.553 Y100.390 E0.13799
G1 X200.553 Y100.924 E0.01676
G1 X197.445 Y97.816 E0.13799
G1 X197.445 Y98.350 E0.01676
G1 X200.553 Y101.458 E0.13799
G1 X200.553 Y101.992 E0.01676
G1 X197.445 Y98.884 E0.13800
G1 X197.445 Y99.418 E0.01676
G1 X200.553 Y102.526 E0.13800
G1 X200.553 Y103.060 E0.01676
G1 X197.445 Y99.952 E0.13800
G1 X197.445 Y100.485 E0.01676
G1 X200.553 Y103.594 E0.13801
G1 X200.553 Y104.128 E0.01676
G1 X197.445 Y101.019 E0.13801
G1 X197.385 Y101.494 E0.01502
G1 X200.553 Y104.662 E0.14064
G1 X200.553 Y105.196 E0.01676
G1 X197.320 Y101.963 E0.14354
M73 P2 R68
G1 X197.297 Y102.132 E0.00537
G1 X197.196 Y102.372 E0.00818
G1 X200.553 Y105.730 E0.14906
G1 X200.553 Y106.264 E0.01676
G1 X197.038 Y102.749 E0.15606
G1 X196.880 Y103.125 E0.01281
G1 X200.553 Y106.798 E0.16307
G1 X200.553 Y107.331 E0.01676
G1 X196.662 Y103.440 E0.17278
G1 X196.430 Y103.742 E0.01196
G1 X200.553 Y107.865 E0.18307
G1 X200.553 Y108.399 E0.01676
G1 X196.198 Y104.044 E0.19336
G1 X195.904 Y104.285 E0.01191
G1 X200.553 Y108.933 E0.20640
G1 X200.553 Y109.467 E0.01676
G1 X195.605 Y104.519 E0.21969
G1 X195.306 Y104.754 E0.01194
G1 X200.553 Y110.001 E0.23298
G1 X200.553 Y110.535 E0.01676
G1 X194.943 Y104.926 E0.24907
G1 X194.566 Y105.082 E0.01283
G1 X200.553 Y111.069 E0.26583
G1 X200.553 Y111.603 E0.01676
G1 X194.447 Y105.497 E0.27111
G1 X194.447 Y106.031 E0.01676
G1 X200.469 Y112.053 E0.26737
G1 X199.935 Y112.053 E0.01676
G1 X194.447 Y106.565 E0.24366
G1 X194.447 Y107.099 E0.01676
G1 X199.401 Y112.053 E0.21995
G1 X198.867 Y112.053 E0.01676
G1 X194.447 Y107.633 E0.19625
G1 X194.447 Y108.167 E0.01676
G1 X198.333 Y112.053 E0.17254
G1 X197.799 Y112.053 E0.01676
G1 X194.447 Y108.701 E0.14883
G1 X194.447 Y109.235 E0.01676
G1 X197.265 Y112.053 E0.12512
G1 X196.731 Y112.053 E0.01676
G1 X194.447 Y109.769 E0.10142
G1 X194.447 Y110.303 E0.01676
G1 X196.197 Y112.053 E0.07771
G1 X195.663 Y112.053 E0.01676
G1 X194.447 Y110.837 E0.05400
G1 X193.923 Y110.847 E0.01645
G1 X195.129 Y112.053 E0.05355
G1 X194.595 Y112.053 E0.01676
G1 X193.389 Y110.847 E0.05355
G1 X192.855 Y110.847 E0.01676
G1 X194.061 Y112.053 E0.05355
G1 X193.527 Y112.053 E0.01676
G1 X192.321 Y110.847 E0.05355
G1 X191.787 Y110.847 E0.01676
G1 X192.993 Y112.053 E0.05355
G1 X192.459 Y112.053 E0.01676
G1 X191.253 Y110.847 E0.05355
G1 X190.719 Y110.847 E0.01676
G1 X191.925 Y112.053 E0.05355
G1 X191.391 Y112.053 E0.01676
G1 X190.185 Y110.847 E0.05355
G1 X189.651 Y110.847 E0.01676
G1 X190.857 Y112.053 E0.05355
G1 X190.323 Y112.053 E0.01676
G1 X189.117 Y110.847 E0.05355
G1 X188.583 Y110.847 E0.01676
G1 X189.790 Y112.053 E0.05355
G1 X189.256 Y112.053 E0.01676
G1 X188.049 Y110.847 E0.05355
G1 X187.516 Y110.847 E0.01676
G1 X188.722 Y112.053 E0.05355
G1 X188.188 Y112.053 E0.01676
G1 X186.982 Y110.847 E0.05355
G1 X186.448 Y110.847 E0.01676
G1 X187.654 Y112.053 E0.05355
G1 X187.120 Y112.053 E0.01676
G1 X185.914 Y110.847 E0.05355
G1 X185.380 Y110.847 E0.01676
G1 X186.586 Y112.053 E0.05355
G1 X186.052 Y112.053 E0.01676
G1 X184.846 Y110.847 E0.05355
G1 X184.312 Y110.847 E0.01676
G1 X185.518 Y112.053 E0.05355
G1 X184.984 Y112.053 E0.01676
G1 X183.778 Y110.847 E0.05355
G1 X183.244 Y110.847 E0.01676
G1 X184.450 Y112.053 E0.05355
G1 X183.916 Y112.053 E0.01676
G1 X182.710 Y110.847 E0.05355
G1 X182.176 Y110.847 E0.01676
G1 X183.382 Y112.053 E0.05355
G1 X182.848 Y112.053 E0.01676
G1 X181.642 Y110.847 E0.05355
G1 X181.108 Y110.847 E0.01676
G1 X182.314 Y112.053 E0.05355
G1 X181.780 Y112.053 E0.01676
G1 X180.574 Y110.847 E0.05355
G1 X180.040 Y110.847 E0.01676
G1 X181.246 Y112.053 E0.05355
G1 X180.712 Y112.053 E0.01676
G1 X179.506 Y110.847 E0.05355
G1 X178.972 Y110.847 E0.01676
G1 X180.178 Y112.053 E0.05355
G1 X179.644 Y112.053 E0.01676
G1 X178.438 Y110.847 E0.05355
G1 X177.904 Y110.847 E0.01676
G1 X179.110 Y112.053 E0.05355
G1 X178.576 Y112.053 E0.01676
G1 X177.370 Y110.847 E0.05355
G1 X176.836 Y110.847 E0.01676
G1 X178.042 Y112.053 E0.05355
G1 X177.508 Y112.053 E0.01676
G1 X176.302 Y110.847 E0.05355
G1 X175.768 Y110.847 E0.01676
G1 X176.974 Y112.053 E0.05355
G1 X176.440 Y112.053 E0.01676
G1 X175.234 Y110.847 E0.05355
G1 X174.700 Y110.847 E0.01676
G1 X175.906 Y112.053 E0.05355
G1 X175.372 Y112.053 E0.01676
G1 X173.997 Y110.677 E0.06108
;WIPE_START
G1 F8640.000
G1 X175.372 Y112.053 E-0.44925
G1 X175.906 Y112.053 E-0.12329
G1 X175.332 Y111.479 E-0.18745
;WIPE_END
G1 E-0.04000 F2100.000
G1 Z0.600 F10800.000
G1 X173.723 Y106.132
G1 Z0.200
G1 E0.80000 F2100.000
G1 F1200.000
G1 X173.386 Y105.795 E0.01495
G1 X173.072 Y106.015 E0.01204
G1 X173.553 Y106.496 E0.02136
G1 X173.553 Y107.030 E0.01676
G1 X172.758 Y106.235 E0.03530
G1 X172.444 Y106.455 E0.01204
G1 X173.553 Y107.564 E0.04925
G1 X173.553 Y108.098 E0.01676
G1 X172.130 Y106.675 E0.06319
G1 X171.816 Y106.894 E0.01204
G1 X173.553 Y108.632 E0.07714
G1 X173.553 Y109.166 E0.01676
G1 X171.502 Y107.114 E0.09108
G1 X171.188 Y107.334 E0.01204
G1 X173.553 Y109.700 E0.10503
G1 X173.553 Y110.234 E0.01676
G1 X170.874 Y107.554 E0.11897
G1 X170.559 Y107.774 E0.01204
G1 X174.838 Y112.053 E0.18999
G1 X174.304 Y112.053 E0.01676
G1 X170.245 Y107.994 E0.18022
G1 X169.931 Y108.214 E0.01204
G1 X173.771 Y112.053 E0.17046
G1 X173.237 Y112.053 E0.01676
G1 X169.617 Y108.434 E0.16069
G1 X169.303 Y108.654 E0.01204
G1 X172.703 Y112.053 E0.15093
G1 X172.169 Y112.053 E0.01676
G1 X168.989 Y108.874 E0.14117
G1 X168.675 Y109.093 E0.01204
G1 X171.635 Y112.053 E0.13140
G1 X171.101 Y112.053 E0.01676
G1 X168.361 Y109.313 E0.12164
G1 X168.047 Y109.533 E0.01204
G1 X170.567 Y112.053 E0.11187
G1 X170.033 Y112.053 E0.01676
G1 X167.733 Y109.753 E0.10211
G1 X167.456 Y109.947 E0.01060
G1 X167.393 Y109.947 E0.00200
G1 X169.499 Y112.053 E0.09351
G1 X168.965 Y112.053 E0.01676
G1 X166.859 Y109.947 E0.09351
G1 X166.325 Y109.947 E0.01676
G1 X168.431 Y112.053 E0.09351
G1 X167.897 Y112.053 E0.01676
G1 X165.791 Y109.947 E0.09351
G1 X165.257 Y109.947 E0.01676
G1 X167.363 Y112.053 E0.09351
G1 X166.829 Y112.053 E0.01676
G1 X164.723 Y109.947 E0.09351
G1 X164.189 Y109.947 E0.01676
G1 X166.295 Y112.053 E0.09351
G1 X165.761 Y112.053 E0.01676
G1 X163.655 Y109.947 E0.09351
G1 X163.121 Y109.947 E0.01676
G1 X165.227 Y112.053 E0.09351
G1 X164.693 Y112.053 E0.01676
G1 X162.587 Y109.947 E0.09351
G1 X162.053 Y109.947 E0.01676
G1 X164.159 Y112.053 E0.09351
G1 X163.625 Y112.053 E0.01676
G1 X161.519 Y109.947 E0.09351
G1 X160.985 Y109.947 E0.01676
G1 X163.091 Y112.053 E0.09351
G1 X162.557 Y112.053 E0.01676
G1 X160.451 Y109.947 E0.09351
G1 X159.917 Y109.947 E0.01676
G1 X162.023 Y112.053 E0.09351
G1 X161.489 Y112.053 E0.01676
G1 X159.383 Y109.947 E0.09351
G1 X158.849 Y109.947 E0.01676
G1 X160.955 Y112.053 E0.09351
G1 X160.421 Y112.053 E0.01676
G1 X158.315 Y109.947 E0.09351
G1 X157.781 Y109.947 E0.01676
G1 X159.887 Y112.053 E0.09351
G1 X159.353 Y112.053 E0.01676
G1 X157.247 Y109.947 E0.09351
M73 Q2 S69
G1 X156.713 Y109.947 E0.01676
G1 X158.819 Y112.053 E0.09351
G1 X158.285 Y112.053 E0.01676
G1 X156.179 Y109.947 E0.09351
G1 X155.645 Y109.947 E0.01676
G1 X157.751 Y112.053 E0.09351
G1 X157.218 Y112.053 E0.01676
G1 X155.111 Y109.947 E0.09351
G1 X154.577 Y109.947 E0.01676
G1 X156.684 Y112.053 E0.09351
G1 X156.150 Y112.053 E0.01676
G1 X154.043 Y109.947 E0.09351
G1 X153.510 Y109.947 E0.01676
G1 X155.616 Y112.053 E0.09351
G1 X155.082 Y112.053 E0.01676
G1 X152.976 Y109.947 E0.09351
G1 X152.442 Y109.947 E0.01676
G1 X154.548 Y112.053 E0.09351
M73 P3 R68
G1 X154.014 Y112.053 E0.01676
G1 X151.908 Y109.947 E0.09351
G1 X151.374 Y109.947 E0.01676
G1 X153.480 Y112.053 E0.09351
G1 X152.946 Y112.053 E0.01676
G1 X150.840 Y109.947 E0.09351
G1 X150.306 Y109.947 E0.01676
G1 X152.412 Y112.053 E0.09351
G1 X151.878 Y112.053 E0.01676
G1 X149.772 Y109.947 E0.09351
