; generated by PrusaSlicer 2.3.3 on 2021-09-14 at 06:10:25 UTC

; 

; external perimeters extrusion width = 0.45mm
; perimeters extrusion width = 0.45mm
; infill extrusion width = 0.45mm
; solid infill extrusion width = 0.45mm
; top infill extrusion width = 0.40mm
; support material extrusion width = 0.35mm
; first layer extrusion width = 0.42mm

M73 P0 R59
M73 Q0 S60
M201 X1000 Y1000 Z200 E5000 ; sets maximum accelerations, mm/sec^2
M203 X200 Y200 Z12 E120 ; sets maximum feedrates, mm/sec
M204 P1250 R1250 T1250 ; sets acceleration (P, T) and retract acceleration (R), mm/sec^2
M205 X8.00 Y8.00 Z0.40 E4.50 ; sets the jerk limits, mm/sec
M205 S0 T0 ; sets the minimum extruding and travel feed rate, mm/sec
M107
;TYPE:Custom
M862.3 P "MK3S" ; printer model check
M862.1 P0.4 ; nozzle diameter check
M115 U3.10.0 ; tell printer latest fw version
G90 ; use absolute coordinates
M83 ; extruder relative mode
M104 S215 ; set extruder temp
M140 S60 ; set bed temp
M190 S60 ; wait for bed temp
M109 S215 ; wait for extruder temp
G28 W ; home all without mesh bed level
G80 ; mesh bed leveling
G1 Y-3.0 F1000.0 ; go outside print area
G92 E0.0
G1 X60.0 E9.0 F1000.0 ; intro line
G1 X100.0 E12.5 F1000.0 ; intro line
G92 E0.0
M221 S95

; Don't change E values below. Excessive value can damage the printer.
M907 E430 ; set extruder motor current
G21 ; set units to millimeters
G90 ; use absolute coordinates
M83 ; use relative distances for extrusion
M900 K0.05 ; Filament gcode LA 1.5
M900 K30 ; Filament gcode LA 1.0
;LAYER_CHANGE
;Z:0.2
;HEIGHT:0.2
;BEFORE_LAYER_CHANGE
G92 E0.0
;0.2


G1 E-0.80000 F2100.000
G1 Z0.400 F10800.000
;AFTER_LAYER_CHANGE
;0.2
G1 X69.957 Y107.177
M73 Q0 S59
G1 Z0.200
G1 E0.80000 F2100.000
M204 S1000
;TYPE:Skirt
;WIDTH:0.42
G1 F1200.000
G1 X95.658 Y80.401 E1.16370
G1 X96.533 Y79.675 E0.03563
G1 X97.390 Y79.199 E0.03076
G1 X98.634 Y78.786 E0.04109
G1 X99.806 Y78.663 E0.03695
G1 X150.174 Y78.663 E1.57924
G1 X151.323 Y78.777 E0.03621
G1 X152.436 Y79.117 E0.03648
G1 X172.326 Y87.951 E0.68238
G1 X172.838 Y88.263 E0.01882
G1 X173.193 Y88.613 E0.01562
G1 X173.468 Y89.033 E0.01574
G1 X180.293 Y102.766 E0.48082
G1 X180.442 Y103.574 E0.02579
G1 X180.442 Y119.484 E0.49884
G1 X180.291 Y120.319 E0.02661
G1 X180.068 Y120.765 E0.01562
G1 X179.757 Y121.154 E0.01562
G1 X170.257 Y130.654 E0.42126
G1 X169.689 Y131.067 E0.02201
G1 X169.159 Y131.268 E0.01775
G1 X168.597 Y131.337 E0.01775
G1 X91.324 Y131.324 E2.42286
G1 X90.725 Y131.182 E0.01929
G1 X73.998 Y124.736 E0.56204
G1 X73.383 Y124.294 E0.02378
G1 X70.219 Y121.130 E0.14027
G1 X69.828 Y120.584 E0.02107
G1 X69.633 Y120.076 E0.01704
G1 X69.559 Y119.538 E0.01704
G1 X69.558 Y108.473 E0.34694
G1 X69.663 Y107.798 E0.02142
G1 X69.932 Y107.231 E0.01966
; printing object Control Pannel Plate.stl id:0 copy 0
;WIPE_START
G1 F8640.000
G1 X72.210 Y104.856 E-0.76000
;WIPE_END
G1 E-0.04000 F2100.000
G1 Z0.600 F10800.000
G1 X73.148 Y108.998
G1 Z0.200
G1 E0.80000 F2100.000
;TYPE:Perimeter
G1 F1200.000
G1 X84.383 Y97.763 E0.49819
G1 X137.723 Y97.763 E1.67244
G1 X138.400 Y97.086 E0.03002
G1 X141.396 Y100.082 E0.13285
G1 X141.898 Y100.506 E0.02060
G1 X142.435 Y100.823 E0.01955
G1 X143.018 Y101.045 E0.01955
G1 X143.630 Y101.167 E0.01955
G1 X144.253 Y101.184 E0.01955
G1 X144.871 Y101.097 E0.01956
G1 X145.465 Y100.908 E0.01955
G1 X146.019 Y100.621 E0.01955
G1 X146.517 Y100.246 E0.01956
G1 X146.946 Y99.793 E0.01955
G1 X147.292 Y99.275 E0.01956
G1 X147.547 Y98.705 E0.01955
G1 X147.703 Y98.101 E0.01955
G1 X147.758 Y97.447 E0.02060
G1 X147.758 Y91.333 E0.19170
G1 X170.603 Y91.333 E0.71630
G1 X176.852 Y103.880 E0.43950
G1 X176.852 Y118.982 E0.47350
G1 X171.920 Y123.914 E0.21870
G1 X168.284 Y120.278 E0.16123
G1 X167.782 Y119.854 E0.02060
G1 X167.245 Y119.537 E0.01955
G1 X166.662 Y119.315 E0.01955
G1 X166.050 Y119.193 E0.01956
G1 X165.428 Y119.176 E0.01954
G1 X164.802 Y119.265 E0.01981
G1 X164.215 Y119.452 E0.01931
G1 X163.661 Y119.739 E0.01955
G1 X163.163 Y120.114 E0.01955
G1 X162.949 Y120.340 E0.00978
G1 X162.734 Y120.567 E0.00978
G1 X162.388 Y121.085 E0.01955
G1 X162.133 Y121.655 E0.01956
G1 X161.977 Y122.259 E0.01955
G1 X161.922 Y122.913 E0.02060
G1 X161.922 Y127.747 E0.15157
G1 X99.498 Y127.747 E1.95727
G1 X99.498 Y124.183 E0.11174
G1 X99.443 Y123.529 E0.02060
G1 X99.287 Y122.925 E0.01955
G1 X99.032 Y122.355 E0.01955
G1 X98.686 Y121.837 E0.01956
G1 X98.257 Y121.384 E0.01955
G1 X97.759 Y121.009 E0.01956
G1 X97.205 Y120.722 E0.01955
G1 X96.611 Y120.533 E0.01955
G1 X95.993 Y120.446 E0.01956
G1 X95.370 Y120.463 E0.01955
G1 X94.758 Y120.585 E0.01955
G1 X94.175 Y120.807 E0.01956
G1 X93.638 Y121.124 E0.01955
G1 X93.136 Y121.548 E0.02060
G1 X89.505 Y125.179 E0.16101
G1 X85.723 Y121.397 E0.16770
M73 P0 R58
G1 X75.563 Y121.397 E0.31856
G1 X73.148 Y118.982 E0.10710
G1 X73.148 Y109.058 E0.31115
M73 P1 R58
M73 Q1 S59
G1 X73.525 Y109.154 F10800.000
;TYPE:External perimeter
G1 F1200.000
G1 X84.539 Y98.140 E0.48840
G1 X137.879 Y98.140 E1.67244
G1 X138.400 Y97.619 E0.02309
G1 X141.141 Y100.360 E0.12152
G1 X141.679 Y100.814 E0.02209
G1 X142.271 Y101.164 E0.02155
G1 X142.913 Y101.409 E0.02155
G1 X143.587 Y101.543 E0.02155
G1 X144.274 Y101.562 E0.02155
G1 X144.955 Y101.466 E0.02155
G1 X145.610 Y101.257 E0.02155
G1 X146.220 Y100.942 E0.02155
G1 X146.769 Y100.529 E0.02155
G1 X147.242 Y100.029 E0.02155
G1 X147.623 Y99.458 E0.02155
G1 X147.904 Y98.830 E0.02155
G1 X148.076 Y98.165 E0.02155
G1 X148.135 Y97.463 E0.02209
G1 X148.135 Y91.710 E0.18037
G1 X170.370 Y91.710 E0.69715
G1 X176.475 Y103.969 E0.42940
G1 X176.475 Y118.826 E0.46583
G1 X171.920 Y123.381 E0.20198
G1 X168.539 Y120.000 E0.14990
G1 X168.001 Y119.546 E0.02209
G1 X167.409 Y119.196 E0.02155
G1 X166.767 Y118.951 E0.02155
G1 X166.093 Y118.817 E0.02155
G1 X165.406 Y118.798 E0.02154
G1 X164.717 Y118.896 E0.02181
G1 X164.070 Y119.103 E0.02129
G1 X163.460 Y119.418 E0.02155
G1 X162.911 Y119.831 E0.02155
G1 X162.675 Y120.081 E0.01077
G1 X162.438 Y120.331 E0.01077
G1 X162.057 Y120.902 E0.02155
G1 X161.776 Y121.530 E0.02155
G1 X161.604 Y122.195 E0.02155
G1 X161.545 Y122.897 E0.02209
G1 X161.545 Y127.370 E0.14024
G1 X99.875 Y127.370 E1.93362
G1 X99.875 Y124.167 E0.10042
G1 X99.816 Y123.465 E0.02209
G1 X99.644 Y122.800 E0.02155
G1 X99.363 Y122.172 E0.02155
G1 X98.982 Y121.601 E0.02155
G1 X98.509 Y121.101 E0.02155
G1 X97.960 Y120.688 E0.02155
G1 X97.350 Y120.373 E0.02155
G1 X96.695 Y120.164 E0.02155
G1 X96.014 Y120.068 E0.02155
G1 X95.327 Y120.087 E0.02155
G1 X94.653 Y120.221 E0.02155
G1 X94.011 Y120.466 E0.02155
G1 X93.419 Y120.816 E0.02155
G1 X92.881 Y121.270 E0.02209
G1 X89.505 Y124.646 E0.14968
G1 X85.879 Y121.020 E0.16077
G1 X75.719 Y121.020 E0.31856
G1 X73.525 Y118.826 E0.09730
G1 X73.525 Y109.214 E0.30135
G1 X73.304 Y108.821 F10800.000
;WIPE_START
G1 F8640.000
G1 X75.846 Y106.881 E-0.76000
;WIPE_END
G1 E-0.04000 F2100.000
G1 Z0.600 F10800.000
G1 X140.979 Y98.302
G1 Z0.200
G1 E0.80000 F2100.000
;TYPE:Perimeter
G1 F1200.000
G1 X140.871 Y97.480 E0.02598
G1 X140.979 Y96.658 E0.02598
G1 X141.296 Y95.893 E0.02598
G1 X141.800 Y95.235 E0.02598
G1 X142.458 Y94.731 E0.02598
G1 X143.223 Y94.414 E0.02598
G1 X143.993 Y94.313 E0.02433
G1 X144.858 Y94.411 E0.02731
G1 X145.632 Y94.731 E0.02626
G1 X146.290 Y95.235 E0.02598
G1 X146.794 Y95.893 E0.02598
G1 X147.091 Y96.610 E0.02433
G1 X147.220 Y97.471 E0.02731
G1 X147.111 Y98.302 E0.02626
G1 X146.794 Y99.067 E0.02598
G1 X146.290 Y99.724 E0.02598
G1 X145.632 Y100.229 E0.02598
G1 X144.867 Y100.546 E0.02598
G1 X144.045 Y100.654 E0.02598
G1 X143.223 Y100.546 E0.02598
G1 X142.458 Y100.229 E0.02598
G1 X141.800 Y99.724 E0.02598
G1 X141.296 Y99.067 E0.02598
G1 X141.002 Y98.357 E0.02410
G1 X141.350 Y98.213 F10800.000
G1 F1200.000
G1 X141.251 Y97.480 E0.02318
G1 X141.346 Y96.757 E0.02287
G1 X141.625 Y96.083 E0.02287
G1 X142.069 Y95.504 E0.02287
G1 X142.648 Y95.060 E0.02287
G1 X143.322 Y94.781 E0.02287
G1 X143.996 Y94.693 E0.02133
G1 X144.763 Y94.779 E0.02420
G1 X145.442 Y95.060 E0.02304
G1 X146.021 Y95.504 E0.02287
G1 X146.465 Y96.083 E0.02287
G1 X146.725 Y96.711 E0.02133
G1 X146.840 Y97.475 E0.02420
G1 X146.744 Y98.203 E0.02304
G1 X146.465 Y98.877 E0.02287
G1 X146.021 Y99.456 E0.02287
G1 X145.442 Y99.900 E0.02287
G1 X144.768 Y100.179 E0.02287
G1 X144.045 Y100.274 E0.02287
G1 X143.322 Y100.179 E0.02287
G1 X142.648 Y99.900 E0.02287
G1 X142.069 Y99.456 E0.02287
G1 X141.625 Y98.877 E0.02287
G1 X141.373 Y98.268 E0.02066
G1 X141.722 Y98.124 F10800.000
;TYPE:External perimeter
G1 F1200.000
G1 X141.631 Y97.480 E0.02038
G1 X141.714 Y96.855 E0.01976
G1 X141.955 Y96.273 E0.01976
G1 X142.338 Y95.773 E0.01976
G1 X142.838 Y95.390 E0.01976
G1 X143.420 Y95.149 E0.01976
G1 X144.000 Y95.072 E0.01832
G1 X144.668 Y95.148 E0.02108
G1 X145.252 Y95.390 E0.01982
G1 X145.752 Y95.773 E0.01976
G1 X146.135 Y96.273 E0.01976
G1 X146.359 Y96.813 E0.01832
G1 X146.459 Y97.478 E0.02108
G1 X146.376 Y98.105 E0.01982
G1 X146.135 Y98.687 E0.01975
G1 X145.752 Y99.187 E0.01976
G1 X145.252 Y99.570 E0.01976
G1 X144.670 Y99.811 E0.01976
G1 X144.045 Y99.894 E0.01976
G1 X143.420 Y99.811 E0.01976
G1 X142.838 Y99.570 E0.01976
G1 X142.338 Y99.187 E0.01976
G1 X141.955 Y98.687 E0.01976
G1 X141.745 Y98.179 E0.01722
G1 X141.335 Y98.023 F10800.000
;WIPE_START
G1 F8640.000
G1 X141.631 Y97.480 E-0.16356
G1 X141.714 Y96.855 E-0.14548
G1 X141.955 Y96.273 E-0.14548
G1 X142.338 Y95.773 E-0.14548
G1 X142.838 Y95.390 E-0.14548
G1 X142.896 Y95.366 E-0.01451
;WIPE_END
G1 E-0.04000 F2100.000
G1 Z0.600 F10800.000
G1 X149.083 Y86.423
G1 Z0.200
G1 E0.80000 F2100.000
;TYPE:Perimeter
G1 F1200.000
G1 X148.633 Y86.077 E0.01780
G1 X148.287 Y85.627 E0.01780
G1 X148.070 Y85.103 E0.01780
G1 X147.996 Y84.540 E0.01780
G1 X148.070 Y83.977 E0.01780
G1 X148.287 Y83.453 E0.01780
G1 X148.633 Y83.003 E0.01780
G1 X149.083 Y82.657 E0.01780
G1 X149.607 Y82.440 E0.01780
G1 X150.117 Y82.373 E0.01612
G1 X150.720 Y82.434 E0.01900
G1 X151.257 Y82.657 E0.01824
G1 X151.707 Y83.003 E0.01780
G1 X152.053 Y83.453 E0.01780
G1 X152.270 Y83.977 E0.01780
G1 X152.344 Y84.540 E0.01780
G1 X152.270 Y85.103 E0.01780
G1 X152.053 Y85.627 E0.01780
G1 X151.707 Y86.077 E0.01780
G1 X151.257 Y86.423 E0.01780
G1 X150.733 Y86.640 E0.01780
G1 X150.170 Y86.714 E0.01780
G1 X149.607 Y86.640 E0.01780
G1 X149.138 Y86.446 E0.01591
G1 X149.283 Y86.097 F10800.000
G1 F1200.000
G1 X148.902 Y85.808 E0.01500
G1 X148.616 Y85.437 E0.01468
G1 X148.437 Y85.004 E0.01468
G1 X148.376 Y84.540 E0.01468
G1 X148.437 Y84.076 E0.01468
G1 X148.616 Y83.643 E0.01468
G1 X148.902 Y83.272 E0.01468
G1 X149.273 Y82.986 E0.01468
G1 X149.706 Y82.807 E0.01468
G1 X150.122 Y82.752 E0.01318
G1 X150.626 Y82.804 E0.01588
G1 X151.067 Y82.986 E0.01495
G1 X151.438 Y83.272 E0.01468
G1 X151.724 Y83.643 E0.01468
G1 X151.903 Y84.076 E0.01468
G1 X151.964 Y84.540 E0.01468
G1 X151.903 Y85.004 E0.01468
G1 X151.724 Y85.437 E0.01468
G1 X151.438 Y85.808 E0.01468
G1 X151.067 Y86.094 E0.01468
G1 X150.634 Y86.273 E0.01468
G1 X150.170 Y86.334 E0.01468
G1 X149.706 Y86.273 E0.01468
G1 X149.338 Y86.120 E0.01248
G1 X149.463 Y85.764 F10800.000
;TYPE:External perimeter
G1 F1200.000
G1 X149.170 Y85.540 E0.01157
G1 X148.946 Y85.247 E0.01157
G1 X148.805 Y84.906 E0.01157
G1 X148.756 Y84.540 E0.01157
G1 X148.805 Y84.174 E0.01157
G1 X148.946 Y83.833 E0.01157
G1 X149.170 Y83.540 E0.01157
G1 X149.463 Y83.316 E0.01157
G1 X149.804 Y83.175 E0.01157
G1 X150.128 Y83.132 E0.01024
G1 X150.533 Y83.173 E0.01277
G1 X150.877 Y83.316 E0.01167
G1 X151.170 Y83.540 E0.01157
G1 X151.394 Y83.833 E0.01157
G1 X151.535 Y84.174 E0.01157
G1 X151.584 Y84.540 E0.01157
G1 X151.535 Y84.906 E0.01157
G1 X151.394 Y85.247 E0.01157
G1 X151.170 Y85.540 E0.01157
G1 X150.877 Y85.764 E0.01157
G1 X150.536 Y85.905 E0.01157
G1 X150.170 Y85.954 E0.01157
G1 X149.804 Y85.905 E0.01157
G1 X149.519 Y85.787 E0.00969
G1 X149.144 Y85.949 F10800.000
;WIPE_START
G1 F8640.000
G1 X149.170 Y85.540 E-0.09865
G1 X148.946 Y85.247 E-0.08520
G1 X148.805 Y84.906 E-0.08521
G1 X148.756 Y84.540 E-0.08520
G1 X148.805 Y84.174 E-0.08520
G1 X148.946 Y83.833 E-0.08521
G1 X149.170 Y83.540 E-0.08520
G1 X149.463 Y83.316 E-0.08521
G1 X149.723 Y83.208 E-0.06491
;WIPE_END
G1 E-0.04000 F2100.000
G1 Z0.600 F10800.000
G1 X102.004 Y84.540
G1 Z0.200
G1 E0.80000 F2100.000
;TYPE:Perimeter
G1 F1200.000
G1 X101.930 Y85.103 E0.01780
G1 X101.713 Y85.627 E0.01780
G1 X101.367 Y86.077 E0.01780
G1 X100.917 Y86.423 E0.01780
G1 X100.393 Y86.640 E0.01780
G1 X99.830 Y86.714 E0.01780
G1 X99.267 Y86.640 E0.01780
G1 X98.743 Y86.423 E0.01780
G1 X98.293 Y86.077 E0.01780
G1 X97.947 Y85.627 E0.01780
G1 X97.750 Y85.152 E0.01612
G1 X97.654 Y84.554 E0.01900
G1 X97.730 Y83.977 E0.01824
G1 X97.947 Y83.453 E0.01780
G1 X98.293 Y83.003 E0.01780
G1 X98.743 Y82.657 E0.01780
G1 X99.267 Y82.440 E0.01780
G1 X99.777 Y82.373 E0.01612
G1 X100.380 Y82.434 E0.01900
G1 X100.917 Y82.657 E0.01824
G1 X101.367 Y83.003 E0.01780
G1 X101.713 Y83.453 E0.01780
G1 X101.930 Y83.977 E0.01780
G1 X101.996 Y84.481 E0.01591
G1 X101.623 Y84.530 F10800.000
G1 F1200.000
G1 X101.563 Y85.004 E0.01500
G1 X101.384 Y85.437 E0.01468
G1 X101.098 Y85.808 E0.01468
G1 X100.727 Y86.094 E0.01468
G1 X100.294 Y86.273 E0.01468
G1 X99.830 Y86.334 E0.01468
G1 X99.366 Y86.273 E0.01468
G1 X98.933 Y86.094 E0.01468
G1 X98.562 Y85.808 E0.01468
G1 X98.276 Y85.437 E0.01468
G1 X98.116 Y85.049 E0.01318
G1 X98.035 Y84.549 E0.01588
G1 X98.097 Y84.076 E0.01495
G1 X98.276 Y83.643 E0.01468
G1 X98.562 Y83.272 E0.01468
G1 X98.933 Y82.986 E0.01468
G1 X99.366 Y82.807 E0.01468
G1 X99.782 Y82.752 E0.01318
G1 X100.286 Y82.804 E0.01588
G1 X100.727 Y82.986 E0.01495
G1 X101.098 Y83.272 E0.01468
G1 X101.384 Y83.643 E0.01468
G1 X101.563 Y84.076 E0.01468
G1 X101.615 Y84.470 E0.01248
G1 X101.244 Y84.540 F10800.000
;TYPE:External perimeter
G1 F1200.000
G1 X101.195 Y84.906 E0.01157
G1 X101.054 Y85.247 E0.01157
G1 X100.830 Y85.540 E0.01157
G1 X100.537 Y85.764 E0.01157
G1 X100.196 Y85.905 E0.01157
G1 X99.830 Y85.954 E0.01157
G1 X99.464 Y85.905 E0.01157
G1 X99.123 Y85.764 E0.01157
G1 X98.830 Y85.540 E0.01157
G1 X98.606 Y85.247 E0.01157
G1 X98.481 Y84.945 E0.01024
G1 X98.416 Y84.543 E0.01277
G1 X98.465 Y84.174 E0.01167
G1 X98.606 Y83.833 E0.01157
G1 X98.830 Y83.540 E0.01157
G1 X99.123 Y83.316 E0.01157
G1 X99.464 Y83.175 E0.01157
G1 X99.788 Y83.132 E0.01024
G1 X100.193 Y83.173 E0.01277
G1 X100.537 Y83.316 E0.01167
G1 X100.830 Y83.540 E0.01157
G1 X101.054 Y83.833 E0.01157
G1 X101.195 Y84.174 E0.01157
G1 X101.236 Y84.481 E0.00969
G1 X101.563 Y84.725 F10800.000
;WIPE_START
G1 F8640.000
G1 X101.195 Y84.906 E-0.09865
G1 X101.054 Y85.247 E-0.08521
G1 X100.830 Y85.540 E-0.08520
G1 X100.537 Y85.764 E-0.08521
G1 X100.196 Y85.905 E-0.08520
G1 X99.830 Y85.954 E-0.08521
G1 X99.464 Y85.905 E-0.08521
G1 X99.123 Y85.764 E-0.08520
G1 X98.900 Y85.593 E-0.06491
;WIPE_END
G1 E-0.04000 F2100.000
G1 Z0.600 F10800.000
G1 X147.381 Y90.956
G1 Z0.200
G1 E0.80000 F2100.000
;TYPE:Perimeter
G1 F1200.000
G1 X147.381 Y97.431 E0.20302
G1 X147.330 Y98.038 E0.01910
G1 X147.190 Y98.580 E0.01756
G1 X146.961 Y99.092 E0.01756
G1 X146.650 Y99.557 E0.01756
G1 X146.265 Y99.964 E0.01756
G1 X145.818 Y100.301 E0.01756
G1 X145.320 Y100.558 E0.01756
G1 X144.786 Y100.728 E0.01756
G1 X144.232 Y100.806 E0.01756
G1 X143.672 Y100.791 E0.01756
G1 X143.123 Y100.681 E0.01756
G1 X142.599 Y100.482 E0.01756
G1 X142.117 Y100.197 E0.01756
G1 X141.652 Y99.804 E0.01910
G1 X138.400 Y96.553 E0.14417
G1 X137.567 Y97.386 E0.03694
G1 X84.691 Y97.386 E1.65788
G1 X90.793 Y91.284 E0.27056
G1 X97.494 Y91.284 E0.21011
G1 X97.494 Y84.597 E0.20967
G1 X97.545 Y84.085 E0.01612
G1 X97.677 Y83.648 E0.01432
G1 X97.893 Y83.245 E0.01432
G1 X98.182 Y82.892 E0.01432
G1 X98.535 Y82.602 E0.01432
G1 X98.938 Y82.387 E0.01432
G1 X99.375 Y82.255 E0.01432
G1 X99.887 Y82.204 E0.01612
G1 X150.137 Y82.207 E1.57555
G1 X150.625 Y82.255 E0.01536
G1 X151.062 Y82.387 E0.01432
G1 X151.465 Y82.603 E0.01432
G1 X151.818 Y82.892 E0.01432
G1 X152.107 Y83.245 E0.01432
G1 X152.323 Y83.648 E0.01432
G1 X152.455 Y84.085 E0.01432
G1 X152.506 Y84.597 E0.01612
G1 X152.506 Y90.956 E0.19937
M73 Q1 S58
G1 X147.441 Y90.956 E0.15881
;WIPE_START
G1 F8640.000
G1 X147.410 Y94.247 E-0.76000
;WIPE_END
