; generated by PrusaSlicer 2.3.3 on 2021-09-27 at 01:44:12 UTC

; 

; external perimeters extrusion width = 0.45mm
; perimeters extrusion width = 0.45mm
; infill extrusion width = 0.45mm
; solid infill extrusion width = 0.45mm
; top infill extrusion width = 0.40mm
; support material extrusion width = 0.35mm
; first layer extrusion width = 0.42mm

M73 P0 R130
M73 Q0 S132
M201 X1000 Y1000 Z200 E5000 ; sets maximum accelerations, mm/sec^2
M203 X200 Y200 Z12 E120 ; sets maximum feedrates, mm/sec
M204 P1250 R1250 T1250 ; sets acceleration (P, T) and retract acceleration (R), mm/sec^2
M205 X8.00 Y8.00 Z0.40 E4.50 ; sets the jerk limits, mm/sec
M205 S0 T0 ; sets the minimum extruding and travel feed rate, mm/sec
M107
;TYPE:Custom
M862.3 P "MK3S" ; printer model check
M862.1 P0.4 ; nozzle diameter check
M115 U3.10.0 ; tell printer latest fw version
G90 ; use absolute coordinates
M83 ; extruder relative mode
M104 S215 ; set extruder temp
M140 S60 ; set bed temp
M190 S60 ; wait for bed temp
M109 S215 ; wait for extruder temp
G28 W ; home all without mesh bed level
G80 ; mesh bed leveling
G1 Y-3.0 F1000.0 ; go outside print area
G92 E0.0
G1 X60.0 E9.0 F1000.0 ; intro line
G1 X100.0 E12.5 F1000.0 ; intro line
G92 E0.0
M221 S95

; Don't change E values below. Excessive value can damage the printer.
M907 E430 ; set extruder motor current
G21 ; set units to millimeters
G90 ; use absolute coordinates
M83 ; use relative distances for extrusion
M900 K0.05 ; Filament gcode LA 1.5
M900 K30 ; Filament gcode LA 1.0
;LAYER_CHANGE
;Z:0.2
;HEIGHT:0.2
;BEFORE_LAYER_CHANGE
G92 E0.0
;0.2


G1 E-0.80000 F2100.000
G1 Z0.400 F10800.000
;AFTER_LAYER_CHANGE
;0.2
G1 X85.619 Y71.581
G1 Z0.200
G1 E0.80000 F2100.000
M204 S1000
;TYPE:Skirt
;WIDTH:0.42
G1 F1200.000
G1 X86.095 Y71.216 E0.01882
G1 X86.644 Y70.982 E0.01870
G1 X87.238 Y70.893 E0.01882
G1 X136.316 Y70.892 E1.53882
M73 Q0 S131
G1 X153.118 Y71.072 E0.52685
G1 X153.765 Y71.224 E0.02083
G1 X154.348 Y71.551 E0.02095
G1 X154.814 Y72.024 E0.02083
G1 X155.131 Y72.608 E0.02083
G1 X160.040 Y95.298 E0.72788
G1 X160.047 Y132.438 E1.16452
G1 X159.959 Y133.059 E0.01965
G1 X159.713 Y133.635 E0.01965
G1 X159.338 Y134.113 E0.01906
G1 X158.857 Y134.479 E0.01894
G1 X158.300 Y134.712 E0.01894
G1 X157.701 Y134.796 E0.01894
G1 X99.659 Y134.796 E1.81990
G1 X99.034 Y134.710 E0.01977
G1 X98.454 Y134.462 E0.01977
G1 X97.795 Y133.881 E0.02755
G1 X97.391 Y133.096 E0.02767
G1 X84.967 Y89.197 E1.43051
G1 X84.915 Y73.231 E0.50059
G1 X85.006 Y72.619 E0.01941
G1 X85.249 Y72.054 E0.01929
G1 X85.582 Y71.628 E0.01694
; printing object LCD Clamp.stl id:0 copy 0
;WIPE_START
G1 F8640.000
G1 X86.095 Y71.216 E-0.15204
G1 X86.644 Y70.982 E-0.13772
G1 X87.238 Y70.893 E-0.13859
G1 X88.674 Y70.893 E-0.33164
;WIPE_END
G1 E-0.04000 F2100.000
G1 Z0.600 F10800.000
G1 X87.292 Y73.269
G1 Z0.200
G1 E0.80000 F2100.000
;TYPE:Support material
G1 F1200.000
G1 X87.292 Y88.705 E0.48396
G1 X88.046 Y88.705 E0.02365
G1 X88.046 Y73.439 E0.47864
G1 X88.800 Y73.439 E0.02365
G1 X88.800 Y88.705 E0.47864
G1 X89.425 Y88.705 E0.01958
G1 X89.425 Y91.033 E0.07301
G1 X89.555 Y91.033 E0.00407
G1 X89.555 Y73.439 E0.55165
G1 X90.309 Y73.439 E0.02365
G1 X90.309 Y91.033 E0.55165
G1 X91.063 Y91.033 E0.02365
G1 X91.063 Y73.439 E0.55165
G1 X91.817 Y73.439 E0.02365
G1 X91.817 Y91.033 E0.55165
G1 X92.571 Y91.033 E0.02365
G1 X92.571 Y73.439 E0.55165
G1 X93.325 Y73.439 E0.02365
G1 X93.325 Y91.033 E0.55165
G1 X94.080 Y91.033 E0.02365
G1 X94.080 Y73.439 E0.55165
G1 X94.834 Y73.439 E0.02365
G1 X94.834 Y91.033 E0.55165
G1 X95.588 Y91.033 E0.02365
G1 X95.588 Y73.439 E0.55165
G1 X96.342 Y73.439 E0.02365
G1 X96.342 Y91.033 E0.55165
G1 X97.096 Y91.033 E0.02365
G1 X97.096 Y73.439 E0.55165
G1 X97.850 Y73.439 E0.02365
G1 X97.850 Y91.033 E0.55165
M73 P0 R129
G1 X98.604 Y91.033 E0.02365
G1 X98.604 Y73.439 E0.55165
G1 X99.359 Y73.439 E0.02365
G1 X99.359 Y91.033 E0.55165
G1 X100.113 Y91.033 E0.02365
G1 X100.113 Y73.439 E0.55165
G1 X100.867 Y73.439 E0.02365
G1 X100.867 Y85.576 E0.38055
G1 X101.621 Y85.576 E0.02365
G1 X101.621 Y73.439 E0.38055
G1 X102.375 Y73.439 E0.02365
G1 X102.375 Y85.576 E0.38055
G1 X103.129 Y85.576 E0.02365
G1 X103.129 Y73.439 E0.38055
G1 X103.884 Y73.439 E0.02365
G1 X103.884 Y85.576 E0.38055
G1 X104.638 Y85.576 E0.02365
G1 X104.638 Y73.439 E0.38056
G1 X105.392 Y73.439 E0.02365
G1 X105.392 Y81.719 E0.25961
G1 X106.146 Y81.719 E0.02365
G1 X106.146 Y73.439 E0.25961
G1 X106.900 Y73.439 E0.02365
G1 X106.900 Y81.889 E0.26493
;WIPE_START
G1 F8640.000
G1 X106.900 Y78.597 E-0.76000
;WIPE_END
G1 E-0.04000 F2100.000
G1 Z0.600 F10800.000
G1 X136.312 Y73.269
G1 Z0.200
G1 E0.80000 F2100.000
G1 F1200.000
G1 X136.312 Y85.576 E0.38588
G1 X137.067 Y85.576 E0.02365
G1 X137.067 Y73.439 E0.38056
G1 X137.821 Y73.439 E0.02365
G1 X137.821 Y85.576 E0.38056
G1 X138.575 Y85.576 E0.02365
G1 X138.575 Y73.439 E0.38056
G1 X139.329 Y73.439 E0.02365
G1 X139.329 Y85.576 E0.38056
G1 X140.083 Y85.576 E0.02365
G1 X140.083 Y73.439 E0.38056
G1 X140.837 Y73.439 E0.02365
G1 X140.837 Y85.576 E0.38056
G1 X141.171 Y85.576 E0.01047
G1 X141.414 Y85.819 E0.01074
G1 X141.414 Y91.033 E0.16349
G1 X141.592 Y91.033 E0.00558
G1 X141.592 Y73.439 E0.55165
G1 X142.346 Y73.439 E0.02365
G1 X142.346 Y91.033 E0.55165
G1 X143.100 Y91.033 E0.02365
G1 X143.100 Y73.439 E0.55165
G1 X143.854 Y73.439 E0.02365
G1 X143.854 Y91.033 E0.55165
G1 X144.608 Y91.033 E0.02365
G1 X144.608 Y73.439 E0.55165
G1 X145.362 Y73.439 E0.02365
G1 X145.362 Y91.033 E0.55165
G1 X146.116 Y91.033 E0.02365
G1 X146.116 Y73.439 E0.55165
G1 X146.871 Y73.439 E0.02365
G1 X146.871 Y91.033 E0.55165
G1 X147.625 Y91.033 E0.02365
G1 X147.625 Y73.439 E0.55165
G1 X148.379 Y73.439 E0.02365
G1 X148.379 Y91.033 E0.55165
G1 X149.133 Y91.033 E0.02365
G1 X149.133 Y73.439 E0.55165
G1 X149.887 Y73.439 E0.02365
G1 X149.887 Y91.033 E0.55165
G1 X150.641 Y91.033 E0.02365
G1 X150.641 Y73.439 E0.55165
G1 X151.396 Y73.439 E0.02365
G1 X151.396 Y88.705 E0.47864
G1 X152.150 Y88.705 E0.02365
G1 X152.150 Y73.439 E0.47864
G1 X152.904 Y73.439 E0.02365
G1 X152.904 Y88.874 E0.48396
;WIPE_START
G1 F8640.000
G1 X152.904 Y85.583 E-0.76000
;WIPE_END
G1 E-0.04000 F2100.000
G1 Z0.600 F10800.000
G1 X104.806 Y96.455
G1 Z0.200
G1 E0.80000 F2100.000
;TYPE:Perimeter
G1 F1200.000
G1 X104.806 Y99.330 E0.09015
G1 X104.786 Y99.282 E0.00163
G1 X104.361 Y98.728 E0.02189
G1 X103.807 Y98.303 E0.02189
G1 X103.153 Y98.033 E0.02219
G1 X102.425 Y97.951 E0.02299
G1 X101.778 Y98.036 E0.02046
G1 X101.133 Y98.303 E0.02189
G1 X100.834 Y98.533 E0.01181
G1 X100.834 Y96.640 E0.05933
G1 X102.164 Y96.640 E0.04170
G1 X102.164 Y87.154 E0.29744
G1 X139.836 Y87.154 E1.18117
G1 X139.836 Y96.455 E0.29164
G1 X104.866 Y96.455 E1.09646
;WIPE_START
M73 Q0 S130
G1 F8640.000
G1 X104.806 Y99.330 E-0.66402
G1 X104.786 Y99.282 E-0.01202
G1 X104.565 Y98.994 E-0.08396
;WIPE_END
G1 E-0.04000 F2100.000
G1 Z0.600 F10800.000
G1 X154.038 Y96.780
G1 Z0.200
G1 E0.80000 F2100.000
G1 F1200.000
G1 X154.039 Y96.640 E0.00439
G1 X156.506 Y96.640 E0.07735
G1 X156.506 Y98.533 E0.05933
G1 X156.207 Y98.303 E0.01181
G1 X155.552 Y98.032 E0.02222
G1 X154.816 Y97.951 E0.02324
G1 X154.133 Y98.053 E0.02165
G1 X154.029 Y98.106 E0.00364
G1 X154.038 Y96.840 E0.03969
;WIPE_START
G1 F8640.000
G1 X154.039 Y96.640 E-0.04617
G1 X156.506 Y96.640 E-0.56959
G1 X156.506 Y97.265 E-0.14424
;WIPE_END
G1 E-0.04000 F2100.000
G1 Z0.600 F10800.000
G1 X104.806 Y101.908
G1 Z0.200
G1 E0.80000 F2100.000
G1 F1200.000
G1 X104.806 Y128.330 E0.82844
G1 X104.786 Y128.282 E0.00163
G1 X104.361 Y127.728 E0.02189
G1 X103.807 Y127.303 E0.02189
G1 X103.153 Y127.033 E0.02219
G1 X102.425 Y126.951 E0.02299
G1 X101.778 Y127.036 E0.02046
G1 X101.133 Y127.303 E0.02189
G1 X100.834 Y127.533 E0.01181
G1 X100.834 Y102.706 E0.77842
G1 X101.133 Y102.935 E0.01181
G1 X101.778 Y103.202 E0.02189
G1 X102.470 Y103.294 E0.02189
G1 X103.162 Y103.202 E0.02189
G1 X103.807 Y102.935 E0.02189
G1 X104.361 Y102.510 E0.02189
G1 X104.781 Y101.963 E0.02164
;WIPE_START
G1 F8640.000
G1 X104.784 Y105.254 E-0.76000
;WIPE_END
G1 E-0.04000 F2100.000
G1 Z0.600 F10800.000
G1 X104.806 Y130.908
G1 Z0.200
G1 E0.80000 F2100.000
G1 F1200.000
G1 X104.806 Y131.255 E0.01087
G1 X104.557 Y131.255 E0.00781
G1 X104.781 Y130.963 E0.01156
;WIPE_START
G1 F8640.000
G1 X104.806 Y131.255 E-0.06776
G1 X104.557 Y131.255 E-0.05753
G1 X104.781 Y130.963 E-0.08511
;WIPE_END
G1 E-0.58960 F2100.000
G1 Z0.600 F10800.000
G1 X140.213 Y96.263
G1 Z0.200
G1 E0.80000 F2100.000
G1 F1200.000
G1 X156.883 Y96.263 E0.52268
G1 X156.883 Y99.536 E0.10262
G1 X156.857 Y99.473 E0.00216
G1 X156.492 Y98.997 E0.01878
G1 X156.017 Y98.633 E0.01878
G1 X155.458 Y98.401 E0.01897
G1 X154.823 Y98.331 E0.02003
G1 X154.250 Y98.417 E0.01818
G1 X153.672 Y98.713 E0.02034
G1 X153.607 Y98.788 E0.00312
G1 X153.652 Y98.134 E0.02055
G1 X153.661 Y96.833 E0.04080
G1 X105.183 Y96.832 E1.51999
M73 P1 R129
M73 Q1 S130
G1 X105.183 Y131.632 E1.09113
G1 X103.553 Y131.632 E0.05110
G1 X103.617 Y131.606 E0.00216
G1 X104.092 Y131.241 E0.01878
G1 X104.456 Y130.766 E0.01878
G1 X104.686 Y130.213 E0.01878
G1 X104.764 Y129.619 E0.01878
G1 X104.686 Y129.026 E0.01878
G1 X104.456 Y128.472 E0.01878
G1 X104.092 Y127.997 E0.01878
G1 X103.617 Y127.633 E0.01878
G1 X103.058 Y127.401 E0.01896
G1 X102.428 Y127.331 E0.01987
G1 X101.876 Y127.404 E0.01746
G1 X101.323 Y127.633 E0.01878
G1 X100.848 Y127.997 E0.01878
G1 X100.483 Y128.472 E0.01878
G1 X100.457 Y128.536 E0.00216
G1 X100.457 Y101.703 E0.84134
G1 X100.483 Y101.766 E0.00216
G1 X100.848 Y102.241 E0.01878
G1 X101.323 Y102.606 E0.01878
G1 X101.876 Y102.835 E0.01878
G1 X102.470 Y102.913 E0.01878
G1 X103.064 Y102.835 E0.01878
G1 X103.617 Y102.606 E0.01878
G1 X104.092 Y102.241 E0.01878
G1 X104.457 Y101.766 E0.01878
G1 X104.686 Y101.213 E0.01878
G1 X104.764 Y100.619 E0.01878
G1 X104.686 Y100.026 E0.01878
G1 X104.457 Y99.472 E0.01878
G1 X104.092 Y98.997 E0.01878
G1 X103.617 Y98.633 E0.01878
G1 X103.058 Y98.401 E0.01896
G1 X102.428 Y98.331 E0.01987
G1 X101.876 Y98.404 E0.01746
G1 X101.323 Y98.633 E0.01878
G1 X100.848 Y98.997 E0.01878
G1 X100.483 Y99.472 E0.01878
G1 X100.457 Y99.536 E0.00216
G1 X100.457 Y96.263 E0.10262
G1 X101.787 Y96.263 E0.04170
G1 X101.787 Y86.777 E0.29744
G1 X140.213 Y86.777 E1.20482
G1 X140.213 Y96.203 E0.29555
;WIPE_START
G1 F8640.000
G1 X143.504 Y96.215 E-0.76000
;WIPE_END
G1 E-0.04000 F2100.000
G1 Z0.600 F10800.000
G1 X153.909 Y99.015
G1 Z0.200
G1 E0.80000 F2100.000
;TYPE:External perimeter
G1 F1200.000
G1 X154.367 Y98.781 E0.01611
G1 X154.830 Y98.712 E0.01470
G1 X155.363 Y98.770 E0.01681
G1 X155.827 Y98.962 E0.01573
G1 X156.223 Y99.266 E0.01566
G1 X156.527 Y99.663 E0.01566
G1 X156.704 Y100.089 E0.01446
G1 X156.784 Y100.617 E0.01676
G1 X156.718 Y101.115 E0.01573
G1 X156.527 Y101.576 E0.01566
G1 X156.223 Y101.973 E0.01566
G1 X155.827 Y102.277 E0.01566
G1 X155.365 Y102.468 E0.01567
G1 X154.868 Y102.532 E0.01571
G1 X154.367 Y102.458 E0.01590
G1 X153.909 Y102.224 E0.01612
G1 X153.584 Y101.850 E0.01554
G1 X153.380 Y101.458 E0.01384
G1 X153.217 Y101.062 E0.01343
G1 X153.158 Y100.619 E0.01401
G1 X153.217 Y100.176 E0.01401
G1 X153.380 Y99.781 E0.01343
G1 X153.584 Y99.389 E0.01384
G1 X153.870 Y99.060 E0.01366
G1 X153.864 Y98.618 F10800.000
;WIPE_START
G1 F8640.000
G1 X154.367 Y98.781 E-0.13163
G1 X154.830 Y98.712 E-0.10826
G1 X155.363 Y98.770 E-0.12379
G1 X155.827 Y98.962 E-0.11587
G1 X156.223 Y99.266 E-0.11535
G1 X156.527 Y99.663 E-0.11534
G1 X156.610 Y99.862 E-0.04976
;WIPE_END
G1 E-0.04000 F2100.000
G1 Z0.600 F10800.000
G1 X153.909 Y128.015
G1 Z0.200
G1 E0.80000 F2100.000
G1 F1200.000
G1 X154.366 Y127.781 E0.01611
G1 X154.830 Y127.712 E0.01470
G1 X155.363 Y127.770 E0.01681
G1 X155.827 Y127.962 E0.01573
G1 X156.223 Y128.266 E0.01566
G1 X156.527 Y128.663 E0.01566
G1 X156.704 Y129.089 E0.01446
G1 X156.784 Y129.617 E0.01676
G1 X156.718 Y130.115 E0.01573
G1 X156.527 Y130.576 E0.01566
G1 X156.223 Y130.973 E0.01566
G1 X155.827 Y131.277 E0.01566
G1 X155.365 Y131.468 E0.01567
G1 X154.868 Y131.532 E0.01571
G1 X154.367 Y131.458 E0.01590
G1 X153.909 Y131.224 E0.01612
G1 X153.584 Y130.850 E0.01554
G1 X153.380 Y130.458 E0.01384
G1 X153.216 Y130.062 E0.01343
G1 X153.158 Y129.619 E0.01401
G1 X153.216 Y129.176 E0.01401
G1 X153.380 Y128.781 E0.01343
G1 X153.584 Y128.389 E0.01384
G1 X153.870 Y128.060 E0.01366
G1 X153.863 Y127.618 F10800.000
G1 X154.027 Y127.107
;TYPE:Perimeter
G1 F1200.000
G1 X154.029 Y103.133 E0.75171
G1 X154.133 Y103.186 E0.00368
G1 X154.861 Y103.294 E0.02308
G1 X155.561 Y103.203 E0.02213
G1 X156.207 Y102.935 E0.02191
G1 X156.506 Y102.706 E0.01181
G1 X156.506 Y127.533 E0.77842
G1 X156.207 Y127.303 E0.01181
G1 X155.552 Y127.032 E0.02222
G1 X154.816 Y126.951 E0.02324
G1 X154.133 Y127.053 E0.02165
G1 X154.080 Y127.080 E0.00184
G1 X153.672 Y127.713 F10800.000
G1 F1200.000
G1 X153.601 Y127.795 E0.00340
G1 X153.637 Y127.492 E0.00955
G1 X153.655 Y126.961 E0.01668
G1 X153.652 Y103.071 E0.74904
G1 X153.609 Y102.453 E0.01944
G1 X153.672 Y102.526 E0.00305
G1 X154.250 Y102.822 E0.02035
G1 X154.865 Y102.913 E0.01949
G1 X155.463 Y102.835 E0.01892
G1 X156.017 Y102.606 E0.01879
G1 X156.492 Y102.241 E0.01878
G1 X156.857 Y101.766 E0.01878
G1 X156.883 Y101.703 E0.00216
G1 X156.883 Y128.536 E0.84134
M73 P1 R128
G1 X156.856 Y128.472 E0.00216
G1 X156.492 Y127.997 E0.01878
G1 X156.017 Y127.633 E0.01878
G1 X155.458 Y127.401 E0.01897
G1 X154.823 Y127.331 E0.02003
G1 X154.250 Y127.417 E0.01818
G1 X153.726 Y127.685 E0.01845
;WIPE_START
G1 F8640.000
G1 X153.601 Y127.795 E-0.03828
G1 X153.637 Y127.492 E-0.07033
G1 X153.655 Y126.961 E-0.12280
G1 X153.654 Y124.671 E-0.52858
;WIPE_END
G1 E-0.04000 F2100.000
G1 Z0.600 F10800.000
G1 X156.883 Y130.703
G1 Z0.200
G1 E0.80000 F2100.000
G1 F1200.000
G1 X156.883 Y131.632 E0.02915
G1 X155.953 Y131.632 E0.02916
G1 X156.017 Y131.606 E0.00217
G1 X156.492 Y131.241 E0.01878
G1 X156.860 Y130.758 E0.01905
;WIPE_START
G1 F8640.000
G1 X156.883 Y131.632 E-0.20194
G1 X155.953 Y131.632 E-0.21472
G1 X156.017 Y131.606 E-0.01597
G1 X156.492 Y131.241 E-0.13827
G1 X156.860 Y130.758 E-0.14026
;WIPE_END
G1 E-0.08884 F2100.000
G1 Z0.600 F10800.000
G1 X153.880 Y131.633
G1 Z0.200
G1 E0.80000 F2100.000
G1 F1200.000
G1 X153.627 Y131.633 E0.00795
G1 X153.612 Y131.456 E0.00555
G1 X153.672 Y131.526 E0.00290
G1 X153.827 Y131.605 E0.00544
;WIPE_START
G1 F8640.000
G1 X153.627 Y131.633 E-0.04666
G1 X153.612 Y131.456 E-0.04084
G1 X153.672 Y131.526 E-0.02133
G1 X153.827 Y131.605 E-0.04007
;WIPE_END
G1 E-0.65110 F2100.000
G1 Z0.600 F10800.000
G1 X101.387 Y131.632
G1 Z0.200
G1 E0.80000 F2100.000
G1 F1200.000
G1 X100.457 Y131.632 E0.02915
G1 X100.457 Y130.703 E0.02915
G1 X100.483 Y130.766 E0.00216
G1 X100.848 Y131.241 E0.01878
G1 X101.331 Y131.609 E0.01905
G1 X101.513 Y131.276 F10800.000
;TYPE:External perimeter
G1 F1200.000
G1 X101.117 Y130.972 E0.01566
G1 X100.813 Y130.576 E0.01566
G1 X100.636 Y130.150 E0.01446
G1 X100.556 Y129.621 E0.01676
G1 X100.622 Y129.124 E0.01573
G1 X100.813 Y128.663 E0.01566
G1 X101.117 Y128.266 E0.01566
G1 X101.513 Y127.962 E0.01566
G1 X101.975 Y127.771 E0.01566
G1 X102.432 Y127.711 E0.01446
G1 X102.963 Y127.770 E0.01676
G1 X103.427 Y127.962 E0.01573
G1 X103.823 Y128.266 E0.01566
G1 X104.127 Y128.663 E0.01566
G1 X104.318 Y129.124 E0.01566
G1 X104.383 Y129.619 E0.01566
G1 X104.318 Y130.115 E0.01566
G1 X104.127 Y130.576 E0.01566
G1 X103.823 Y130.972 E0.01566
G1 X103.427 Y131.276 E0.01566
G1 X102.965 Y131.468 E0.01566
G1 X102.470 Y131.533 E0.01566
G1 X101.975 Y131.468 E0.01566
G1 X101.569 Y131.299 E0.01378
G1 X101.167 Y131.476 F10800.000
;WIPE_START
G1 F8640.000
G1 X101.117 Y130.972 E-0.12878
G1 X100.813 Y130.576 E-0.11534
G1 X100.636 Y130.150 E-0.10652
G1 X100.556 Y129.621 E-0.12342
G1 X100.622 Y129.124 E-0.11583
G1 X100.813 Y128.663 E-0.11534
G1 X100.957 Y128.474 E-0.05477
;WIPE_END
G1 E-0.04000 F2100.000
G1 Z0.600 F10800.000
G1 X102.470 Y102.533
G1 Z0.200
G1 E0.80000 F2100.000
G1 F1200.000
G1 X101.975 Y102.468 E0.01566
G1 X101.513 Y102.276 E0.01566
G1 X101.117 Y101.972 E0.01566
G1 X100.813 Y101.576 E0.01566
G1 X100.622 Y101.115 E0.01566
G1 X100.556 Y100.619 E0.01566
G1 X100.622 Y100.124 E0.01566
G1 X100.813 Y99.663 E0.01566
