; generated by PrusaSlicer 2.3.3 on 2021-09-27 at 17:02:23 UTC

; 

; external perimeters extrusion width = 0.45mm
; perimeters extrusion width = 0.45mm
; infill extrusion width = 0.45mm
; solid infill extrusion width = 0.45mm
; top infill extrusion width = 0.40mm
; support material extrusion width = 0.35mm
; first layer extrusion width = 0.42mm

M73 P0 R9
M73 Q0 S9
M201 X1000 Y1000 Z200 E5000 ; sets maximum accelerations, mm/sec^2
M203 X200 Y200 Z12 E120 ; sets maximum feedrates, mm/sec
M204 P1250 R1250 T1250 ; sets acceleration (P, T) and retract acceleration (R), mm/sec^2
M205 X8.00 Y8.00 Z0.40 E4.50 ; sets the jerk limits, mm/sec
M205 S0 T0 ; sets the minimum extruding and travel feed rate, mm/sec
M107
;TYPE:Custom
M862.3 P "MK3S" ; printer model check
M862.1 P0.4 ; nozzle diameter check
M115 U3.10.0 ; tell printer latest fw version
G90 ; use absolute coordinates
M83 ; extruder relative mode
M104 S215 ; set extruder temp
M140 S60 ; set bed temp
M190 S60 ; wait for bed temp
M109 S215 ; wait for extruder temp
G28 W ; home all without mesh bed level
G80 ; mesh bed leveling
G1 Y-3.0 F1000.0 ; go outside print area
G92 E0.0
G1 X60.0 E9.0 F1000.0 ; intro line
M73 P0 R8
M73 Q0 S8
G1 X100.0 E12.5 F1000.0 ; intro line
G92 E0.0
M221 S95

; Don't change E values below. Excessive value can damage the printer.
M907 E430 ; set extruder motor current
G21 ; set units to millimeters
G90 ; use absolute coordinates
M83 ; use relative distances for extrusion
M900 K0.05 ; Filament gcode LA 1.5
M900 K30 ; Filament gcode LA 1.0
;LAYER_CHANGE
;Z:0.2
;HEIGHT:0.2
;BEFORE_LAYER_CHANGE
G92 E0.0
;0.2


M73 P1 R8
M73 Q1 S8
G1 E-0.80000 F2100.000
G1 Z0.400 F10800.000
;AFTER_LAYER_CHANGE
;0.2
G1 X95.681 Y87.288
G1 Z0.200
G1 E0.80000 F2100.000
M204 S1000
;TYPE:Skirt
;WIDTH:0.42
G1 F1200.000
G1 X96.173 Y86.924 E0.01917
G1 X96.726 Y86.701 E0.01870
G1 X97.317 Y86.623 E0.01870
G1 X152.674 Y86.623 E1.73566
G1 X153.541 Y86.788 E0.02767
M73 Q2 S8
G1 X154.287 Y87.258 E0.02767
G1 X154.811 Y87.968 E0.02767
G1 X155.040 Y88.820 E0.02767
G1 X155.042 Y117.574 E0.90156
M73 P2 R8
G1 X154.866 Y118.324 E0.02414
G1 X154.460 Y118.978 E0.02414
G1 X150.741 Y122.705 E0.16510
G1 X150.241 Y123.077 E0.01953
G1 X149.691 Y123.298 E0.01858
G1 X149.100 Y123.377 E0.01870
G1 X100.722 Y123.369 E1.51687
G1 X99.989 Y123.189 E0.02367
G1 X99.346 Y122.785 E0.02378
G1 X95.625 Y119.071 E0.16487
G1 X95.253 Y118.571 E0.01953
G1 X95.032 Y118.021 E0.01858
G1 X94.953 Y117.438 E0.01846
G1 X94.954 Y88.931 E0.89379
M73 P3 R8
M73 Q3 S8
G1 X95.051 Y88.324 E0.01929
G1 X95.299 Y87.765 E0.01917
G1 X95.644 Y87.334 E0.01729
; printing object Power Gate.stl id:0 copy 0
;WIPE_START
G1 F8640.000
G1 X96.173 Y86.924 E-0.15464
G1 X96.726 Y86.701 E-0.13772
G1 X97.317 Y86.623 E-0.13772
G1 X98.746 Y86.623 E-0.32992
;WIPE_END
G1 E-0.04000 F2100.000
G1 Z0.600 F10800.000
G1 X137.877 Y95.727
G1 Z0.200
G1 E0.80000 F2100.000
;TYPE:Perimeter
G1 F1200.000
G1 X138.022 Y94.966 E0.02428
G1 X138.262 Y94.230 E0.02428
G1 X138.591 Y93.529 E0.02428
G1 X139.006 Y92.875 E0.02428
G1 X139.500 Y92.279 E0.02428
G1 X140.064 Y91.749 E0.02428
G1 X140.691 Y91.293 E0.02428
G1 X141.369 Y90.920 E0.02428
G1 X142.089 Y90.635 E0.02428
G1 X142.464 Y90.539 E0.01214
G1 X142.840 Y90.443 E0.01214
G1 X143.608 Y90.346 E0.02428
G1 X144.382 Y90.346 E0.02428
G1 X145.150 Y90.443 E0.02428
G1 X145.901 Y90.635 E0.02428
G1 X146.621 Y90.920 E0.02428
G1 X147.299 Y91.293 E0.02428
G1 X147.926 Y91.749 E0.02428
G1 X148.490 Y92.279 E0.02428
G1 X148.984 Y92.875 E0.02428
G1 X149.399 Y93.529 E0.02428
G1 X149.728 Y94.230 E0.02428
G1 X149.968 Y94.966 E0.02428
G1 X150.113 Y95.727 E0.02428
G1 X150.161 Y96.500 E0.02428
G1 X150.113 Y97.273 E0.02428
G1 X149.968 Y98.034 E0.02428
G1 X149.728 Y98.770 E0.02428
G1 X149.399 Y99.471 E0.02428
G1 X148.984 Y100.125 E0.02428
G1 X148.490 Y100.721 E0.02428
G1 X147.926 Y101.251 E0.02428
G1 X147.299 Y101.707 E0.02428
G1 X146.621 Y102.080 E0.02428
G1 X145.901 Y102.365 E0.02428
G1 X145.150 Y102.557 E0.02428
G1 X144.382 Y102.654 E0.02428
G1 X143.608 Y102.654 E0.02428
G1 X142.840 Y102.557 E0.02428
G1 X142.089 Y102.365 E0.02428
G1 X141.369 Y102.080 E0.02428
G1 X140.691 Y101.707 E0.02428
G1 X140.064 Y101.251 E0.02428
G1 X139.500 Y100.721 E0.02428
G1 X139.006 Y100.125 E0.02428
G1 X138.591 Y99.471 E0.02428
G1 X138.262 Y98.770 E0.02428
G1 X138.022 Y98.034 E0.02428
G1 X137.877 Y97.273 E0.02428
G1 X137.829 Y96.500 E0.02428
G1 X137.873 Y95.787 E0.02240
G1 X138.250 Y95.811 F10800.000
G1 F1200.000
G1 X138.388 Y95.060 E0.02392
G1 X138.613 Y94.369 E0.02279
G1 X138.922 Y93.711 E0.02279
G1 X139.312 Y93.098 E0.02279
G1 X139.775 Y92.537 E0.02279
G1 X140.305 Y92.040 E0.02279
G1 X140.893 Y91.612 E0.02279
G1 X141.530 Y91.262 E0.02279
G1 X142.206 Y90.995 E0.02279
G1 X142.910 Y90.814 E0.02279
G1 X143.632 Y90.723 E0.02279
G1 X144.358 Y90.723 E0.02279
G1 X145.080 Y90.814 E0.02279
G1 X145.784 Y90.995 E0.02279
G1 X146.460 Y91.262 E0.02279
G1 X147.097 Y91.612 E0.02279
G1 X147.685 Y92.040 E0.02279
G1 X148.215 Y92.537 E0.02279
G1 X148.678 Y93.098 E0.02279
G1 X149.068 Y93.711 E0.02279
G1 X149.377 Y94.369 E0.02279
G1 X149.602 Y95.060 E0.02279
G1 X149.738 Y95.774 E0.02279
G1 X149.784 Y96.500 E0.02279
G1 X149.738 Y97.226 E0.02279
G1 X149.602 Y97.940 E0.02279
G1 X149.377 Y98.631 E0.02279
G1 X149.068 Y99.289 E0.02279
G1 X148.678 Y99.902 E0.02279
G1 X148.215 Y100.463 E0.02279
M73 Q4 S8
G1 X147.685 Y100.960 E0.02279
G1 X147.097 Y101.388 E0.02279
G1 X146.460 Y101.738 E0.02279
G1 X145.784 Y102.005 E0.02279
G1 X145.080 Y102.186 E0.02279
G1 X144.358 Y102.277 E0.02279
G1 X143.632 Y102.277 E0.02279
G1 X142.910 Y102.186 E0.02279
G1 X142.206 Y102.005 E0.02279
G1 X141.530 Y101.738 E0.02279
M73 P4 R8
G1 X140.893 Y101.388 E0.02279
G1 X140.305 Y100.960 E0.02279
G1 X139.775 Y100.463 E0.02279
G1 X139.312 Y99.902 E0.02279
G1 X138.922 Y99.289 E0.02279
G1 X138.613 Y98.631 E0.02279
G1 X138.388 Y97.940 E0.02279
G1 X138.252 Y97.226 E0.02279
G1 X138.206 Y96.500 E0.02279
G1 X138.246 Y95.871 E0.01977
G1 X138.622 Y95.894 F10800.000
;TYPE:External perimeter
G1 F1200.000
G1 X138.754 Y95.154 E0.02356
G1 X138.964 Y94.508 E0.02131
G1 X139.253 Y93.893 E0.02131
G1 X139.618 Y93.320 E0.02131
G1 X140.051 Y92.796 E0.02131
G1 X140.546 Y92.331 E0.02131
G1 X141.096 Y91.932 E0.02131
G1 X141.691 Y91.604 E0.02131
G1 X142.323 Y91.354 E0.02131
G1 X142.981 Y91.185 E0.02131
G1 X143.655 Y91.100 E0.02131
G1 X144.335 Y91.100 E0.02131
G1 X145.009 Y91.185 E0.02131
G1 X145.667 Y91.354 E0.02131
G1 X146.299 Y91.604 E0.02131
G1 X146.894 Y91.932 E0.02131
G1 X147.444 Y92.331 E0.02131
G1 X147.939 Y92.796 E0.02131
G1 X148.372 Y93.320 E0.02131
G1 X148.737 Y93.893 E0.02131
G1 X149.026 Y94.508 E0.02131
G1 X149.236 Y95.154 E0.02131
G1 X149.363 Y95.822 E0.02131
G1 X149.406 Y96.500 E0.02131
G1 X149.363 Y97.178 E0.02131
G1 X149.236 Y97.846 E0.02131
G1 X149.026 Y98.492 E0.02131
G1 X148.737 Y99.107 E0.02131
G1 X148.372 Y99.680 E0.02131
G1 X147.939 Y100.204 E0.02130
G1 X147.444 Y100.669 E0.02131
G1 X146.894 Y101.068 E0.02131
G1 X146.299 Y101.396 E0.02131
G1 X145.667 Y101.646 E0.02131
G1 X145.009 Y101.815 E0.02131
G1 X144.335 Y101.900 E0.02131
G1 X143.655 Y101.900 E0.02131
G1 X142.981 Y101.815 E0.02131
G1 X142.323 Y101.646 E0.02131
G1 X141.691 Y101.396 E0.02131
G1 X141.096 Y101.068 E0.02131
G1 X140.546 Y100.669 E0.02131
G1 X140.051 Y100.204 E0.02131
G1 X139.618 Y99.680 E0.02131
G1 X139.253 Y99.107 E0.02131
G1 X138.964 Y98.492 E0.02131
G1 X138.754 Y97.846 E0.02131
G1 X138.627 Y97.178 E0.02131
G1 X138.584 Y96.500 E0.02131
G1 X138.619 Y95.954 E0.01715
G1 X138.301 Y95.655 F10800.000
;WIPE_START
G1 F8640.000
G1 X138.754 Y95.154 E-0.18730
G1 X138.964 Y94.508 E-0.15690
G1 X139.253 Y93.893 E-0.15690
G1 X139.618 Y93.320 E-0.15690
G1 X139.899 Y92.979 E-0.10200
;WIPE_END
G1 E-0.04000 F2100.000
G1 Z0.600 F10800.000
G1 X105.926 Y102.754
G1 Z0.200
G1 E0.80000 F2100.000
;TYPE:Perimeter
G1 F1200.000
G1 X121.374 Y102.754 E0.48437
G1 X121.374 Y90.164 E0.39475
G1 X151.506 Y90.164 E0.94476
M73 P5 R8
M73 Q5 S8
G1 X151.506 Y116.932 E0.83929
G1 X148.602 Y119.836 E0.12876
G1 X101.398 Y119.836 E1.48005
G1 X98.494 Y116.932 E0.12876
M73 Q6 S8
G1 X98.494 Y90.164 E0.83929
M73 P6 R8
G1 X105.926 Y90.164 E0.23302
G1 X105.926 Y102.694 E0.39287
G1 X106.303 Y102.377 F10800.000
G1 F1200.000
G1 X120.997 Y102.377 E0.46073
G1 X120.997 Y89.787 E0.39475
G1 X151.883 Y89.787 E0.96840
M73 Q7 S8
G1 X151.883 Y117.088 E0.85601
M73 P7 R8
G1 X148.758 Y120.213 E0.13856
G1 X101.242 Y120.213 E1.48984
G1 X98.117 Y117.088 E0.13856
G1 X98.117 Y89.787 E0.85601
M73 P8 R8
M73 Q8 S8
G1 X106.303 Y89.787 E0.25666
G1 X106.303 Y102.317 E0.39287
G1 X106.680 Y102.000 F10800.000
;TYPE:External perimeter
G1 F1200.000
G1 X106.680 Y90.020 E0.37562
G1 X120.620 Y90.020 E0.43708
G1 X120.620 Y102.000 E0.37562
G1 X106.740 Y102.000 E0.43520
G1 X106.291 Y102.094 F10800.000
;WIPE_START
G1 F8640.000
G1 X106.724 Y98.709 E-0.76000
;WIPE_END
G1 E-0.04000 F2100.000
G1 Z0.600 F10800.000
G1 X97.740 Y89.410
G1 Z0.200
G1 E0.80000 F2100.000
G1 F1200.000
G1 X152.260 Y89.410 E1.70944
M73 P9 R8
M73 Q9 S8
G1 X152.260 Y117.244 E0.87273
G1 X148.914 Y120.590 E0.14835
G1 X101.086 Y120.590 E1.49964
M73 P10 R8
M73 Q10 S8
G1 X97.740 Y117.244 E0.14835
G1 X97.740 Y89.470 E0.87085
G1 X98.093 Y89.598 F10800.000
;WIPE_START
G1 F8640.000
G1 X101.031 Y89.466 E-0.76000
;WIPE_END
G1 E-0.04000 F2100.000
G1 Z0.600 F10800.000
G1 X106.491 Y89.715
G1 Z0.200
G1 E0.80000 F2100.000
;TYPE:Gap fill
;WIDTH:0.275842
G1 F1200.000
G1 X120.809 Y89.715 E0.27729
;WIPE_START
G1 F8640.000
G1 X117.517 Y89.715 E-0.76000
;WIPE_END
G1 E-0.04000 F2100.000
G1 Z0.600 F10800.000
G1 X146.502 Y90.506
G1 Z0.200
G1 E0.80000 F2100.000
;WIDTH:0.300983
G1 F1200.000
G1 X146.371 Y90.481 E0.00286
;WIDTH:0.263152
G1 X146.240 Y90.456 E0.00244
;WIDTH:0.22532
G1 X146.109 Y90.431 E0.00202
;WIDTH:0.187488
G1 X145.979 Y90.406 E0.00160
;WIDTH:0.149658
G1 X145.852 Y90.390 E0.00113
;WIDTH:0.120437
G1 X145.732 Y90.375 E0.00078
;WIPE_START
G1 F8640.000
G1 X145.852 Y90.390 E-0.02789
;WIPE_END
G1 E-0.77211 F2100.000
G1 Z0.600 F10800.000
G1 X142.258 Y90.375
M73 Q11 S8
G1 Z0.200
G1 E0.80000 F2100.000
;WIDTH:0.120436
G1 F1200.000
G1 X141.881 Y90.431 E0.00246
;WIDTH:0.225321
G1 X141.488 Y90.506 E0.00606
G1 X141.139 Y90.918 F10800.000
;TYPE:Solid infill
;WIDTH:0.420001
G1 F1200.000
G1 X140.668 Y90.447 E0.02089
G1 X140.135 Y90.447 E0.01672
G1 X140.670 Y90.982 E0.02374
G1 X140.348 Y91.193 E0.01208
G1 X139.601 Y90.447 E0.03309
M73 P11 R8
G1 X139.068 Y90.447 E0.01672
G1 X140.039 Y91.418 E0.04304
G1 X139.747 Y91.659 E0.01188
G1 X138.535 Y90.447 E0.05374
G1 X138.002 Y90.447 E0.01672
G1 X139.472 Y91.917 E0.06519
G1 X139.209 Y92.187 E0.01182
G1 X137.468 Y90.447 E0.07717
G1 X136.935 Y90.447 E0.01672
G1 X138.967 Y92.479 E0.09011
G1 X138.733 Y92.778 E0.01191
G1 X136.402 Y90.447 E0.10337
G1 X135.868 Y90.447 E0.01672
G1 X138.526 Y93.104 E0.11784
G1 X138.323 Y93.435 E0.01216
G1 X135.335 Y90.447 E0.13249
G1 X134.802 Y90.447 E0.01672
G1 X138.153 Y93.798 E0.14857
G1 X137.986 Y94.164 E0.01262
G1 X134.269 Y90.447 E0.16482
G1 X133.735 Y90.447 E0.01672
G1 X137.855 Y94.566 E0.18267
G1 X137.732 Y94.977 E0.01344
G1 X133.202 Y90.447 E0.20088
G1 X132.669 Y90.447 E0.01672
G1 X137.647 Y95.425 E0.22074
G1 X137.596 Y95.692 E0.00851
G1 X137.583 Y95.895 E0.00638
G1 X132.136 Y90.447 E0.24156
G1 X131.602 Y90.447 E0.01672
G1 X137.552 Y96.396 E0.26381
G1 X137.574 Y96.952 E0.01742
G1 X131.069 Y90.447 E0.28842
G1 X130.536 Y90.447 E0.01672
G1 X137.643 Y97.554 E0.31514
M73 Q12 S8
G1 X137.748 Y98.104 E0.01755
G1 X137.790 Y98.235 E0.00431
G1 X130.002 Y90.447 E0.34533
M73 P12 R7
G1 X129.469 Y90.447 E0.01672
G1 X138.443 Y99.420 E0.39789
;WIPE_START
G1 F8640.000
G1 X136.115 Y97.093 E-0.76000
;WIPE_END
G1 E-0.04000 F2100.000
G1 Z0.600 F10800.000
G1 X150.630 Y90.277
M73 Q12 S7
G1 Z0.200
G1 E0.80000 F2100.000
G1 F1200.000
G1 X151.223 Y90.870 E0.02628
G1 X151.223 Y91.403 E0.01672
G1 X150.267 Y90.447 E0.04240
G1 X149.734 Y90.447 E0.01672
G1 X151.223 Y91.936 E0.06604
G1 X151.223 Y92.470 E0.01672
G1 X149.200 Y90.447 E0.08969
G1 X148.667 Y90.447 E0.01672
G1 X151.223 Y93.003 E0.11334
G1 X151.223 Y93.536 E0.01672
G1 X148.134 Y90.447 E0.13698
G1 X147.601 Y90.447 E0.01672
G1 X151.223 Y94.069 E0.16063
G1 X151.223 Y94.603 E0.01672
G1 X147.067 Y90.447 E0.18428
G1 X146.801 Y90.447 E0.00834
G1 X146.758 Y90.671 E0.00716
G1 X147.451 Y91.054 E0.02482
G1 X148.106 Y91.530 E0.02540
G1 X148.697 Y92.085 E0.02540
G1 X149.213 Y92.709 E0.02540
G1 X149.647 Y93.393 E0.02540
G1 X149.796 Y93.709 E0.01095
G1 X151.223 Y95.136 E0.06329
G1 X151.223 Y95.669 E0.01672
G1 X150.142 Y94.589 E0.04792
G1 X150.242 Y94.896 E0.01014
G1 X150.319 Y95.299 E0.01285
G1 X151.223 Y96.203 E0.04009
G1 X151.223 Y96.736 E0.01672
G1 X150.408 Y95.921 E0.03612
G1 X150.444 Y96.490 E0.01788
G1 X151.223 Y97.269 E0.03453
G1 X151.223 Y97.802 E0.01672
G1 X150.414 Y96.993 E0.03588
G1 X150.394 Y97.308 E0.00990
G1 X150.362 Y97.475 E0.00531
G1 X151.223 Y98.336 E0.03817
G1 X151.223 Y98.869 E0.01672
G1 X150.277 Y97.923 E0.04196
G1 X150.242 Y98.104 E0.00579
G1 X150.164 Y98.344 E0.00790
G1 X151.223 Y99.402 E0.04694
G1 X151.223 Y99.935 E0.01672
G1 X150.034 Y98.746 E0.05274
G1 X149.876 Y99.121 E0.01277
G1 X151.223 Y100.469 E0.05975
G1 X151.223 Y101.002 E0.01672
G1 X149.705 Y99.484 E0.06731
M73 Q13 S7
G1 X149.510 Y99.823 E0.01225
G1 X151.223 Y101.535 E0.07594
G1 X151.223 Y102.069 E0.01672
G1 X149.303 Y100.149 E0.08513
G1 X149.077 Y100.456 E0.01196
G1 X151.223 Y102.602 E0.09517
M73 P13 R7
G1 X151.223 Y103.135 E0.01672
G1 X148.835 Y100.748 E0.10587
G1 X148.580 Y101.025 E0.01183
G1 X151.223 Y103.668 E0.11721
G1 X151.223 Y104.202 E0.01672
G1 X148.305 Y101.283 E0.12940
G1 X148.020 Y101.532 E0.01185
G1 X151.223 Y104.735 E0.14202
G1 X151.223 Y105.268 E0.01672
G1 X147.711 Y101.757 E0.15571
G1 X147.397 Y101.975 E0.01201
G1 X151.223 Y105.802 E0.16965
G1 X151.223 Y106.335 E0.01672
G1 X147.053 Y102.165 E0.18491
G1 X146.705 Y102.350 E0.01236
G1 X151.223 Y106.868 E0.20033
G1 X151.223 Y107.401 E0.01672
G1 X146.323 Y102.501 E0.21727
G1 X145.936 Y102.648 E0.01298
G1 X151.223 Y107.935 E0.23444
G1 X151.223 Y108.468 E0.01672
G1 X145.512 Y102.756 E0.25325
G1 X145.074 Y102.852 E0.01405
G1 X151.223 Y109.001 E0.27267
G1 X151.223 Y109.534 E0.01672
G1 X144.600 Y102.912 E0.29366
G1 X144.400 Y102.937 E0.00633
G1 X144.092 Y102.937 E0.00964
G1 X151.223 Y110.068 E0.31618
M73 Q14 S7
G1 X151.223 Y110.601 E0.01672
G1 X143.555 Y102.933 E0.34003
M73 P14 R7
G1 X142.944 Y102.856 E0.01929
G1 X151.223 Y111.134 E0.36709
G1 X151.223 Y111.668 E0.01672
G1 X142.255 Y102.699 E0.39768
G1 X142.002 Y102.634 E0.00818
G1 X141.430 Y102.408 E0.01929
G1 X151.223 Y112.201 E0.43424
G1 X151.223 Y112.734 E0.01672
G1 X128.936 Y90.447 E0.98825
G1 X128.403 Y90.447 E0.01672
G1 X151.223 Y113.267 E1.01190
M73 P15 R7
M73 Q15 S7
G1 X151.223 Y113.801 E0.01672
G1 X127.869 Y90.447 E1.03554
G1 X127.336 Y90.447 E0.01672
G1 X151.223 Y114.334 E1.05919
G1 X151.223 Y114.867 E0.01672
G1 X126.803 Y90.447 E1.08284
M73 P16 R7
M73 Q16 S7
G1 X126.270 Y90.447 E0.01672
G1 X151.223 Y115.400 E1.10648
G1 X151.223 Y115.934 E0.01672
G1 X125.736 Y90.447 E1.13013
G1 X125.203 Y90.447 E0.01672
G1 X151.223 Y116.467 E1.15378
M73 P17 R7
M73 Q17 S7
G1 X151.223 Y116.815 E0.01091
G1 X151.130 Y116.908 E0.00411
G1 X124.670 Y90.447 E1.17331
G1 X124.136 Y90.447 E0.01672
G1 X150.864 Y117.174 E1.18513
M73 Q18 S7
G1 X150.597 Y117.441 E0.01182
G1 X123.603 Y90.447 E1.19696
M73 P18 R7
G1 X123.070 Y90.447 E0.01672
G1 X150.330 Y117.707 E1.20878
G1 X150.064 Y117.974 E0.01182
G1 X122.537 Y90.447 E1.22060
M73 P19 R7
M73 Q19 S7
G1 X122.003 Y90.447 E0.01672
G1 X149.797 Y118.241 E1.23243
G1 X149.531 Y118.507 E0.01182
G1 X121.657 Y90.634 E1.23597
G1 X121.657 Y91.167 E0.01672
G1 X149.264 Y118.774 E1.22414
M73 P20 R7
M73 Q20 S7
G1 X148.997 Y119.041 E0.01182
G1 X121.657 Y91.700 E1.21232
G1 X121.657 Y92.234 E0.01672
G1 X148.731 Y119.307 E1.20050
M73 P21 R7
M73 Q21 S7
G1 X148.485 Y119.553 E0.01090
G1 X148.443 Y119.553 E0.00131
G1 X121.657 Y92.767 E1.18775
G1 X121.657 Y93.300 E0.01672
G1 X147.910 Y119.553 E1.16410
G1 X147.377 Y119.553 E0.01672
G1 X121.657 Y93.833 E1.14046
M73 P22 R7
M73 Q22 S7
